images/hero.cube
LUT_3D_SIZE 5
0.0000 0.0000 0.0000
0.3311 0.0000 0.0000
0.5243 0.0000 0.0000
1.0077 0.0000 0.0000
1.0077 0.0000 0.0744
0.0000 0.1380 0.0000
0.0000 0.1422 0.0000
0.5673 0.0000 0.0000
1.0077 0.0000 0.0000
1.0077 0.0000 0.0000
0.0000 0.6340 0.0000
0.0000 0.6188 0.0000
0.3972 0.5512 0.0000
1.0077 0.3506 0.0000
1.0077 0.0000 0.0000
0.0000 1.1518 0.0000
0.0000 1.1518 0.0000
0.0000 1.1465 0.0000
0.9080 1.1229 0.0000
1.0077 1.1220 0.0000
0.0000 1.1518 0.0000
0.0000 1.1518 0.0000
0.0000 1.1518 0.0000
0.7071 1.1518 0.3858
1.0077 1.1518 1.0837
0.0000 0.1688 0.0929
0.1611 0.0000 0.1526
0.5409 0.0000 0.1805
1.0077 0.0000 0.1971
1.0077 0.0000 0.2328
0.0000 0.1393 0.1537
0.0000 0.1311 0.1599
0.5745 0.0000 0.1691
1.0077 0.0000 0.1848
1.0077 0.0000 0.2269
0.0000 0.6287 0.0000
0.0000 0.6134 0.0000
0.4305 0.5456 0.0000
1.0077 0.3403 0.0938
1.0077 0.0000 0.2125
0.0000 1.1518 0.0000
0.0000 1.1518 0.0000
0.0000 1.1518 0.0000
0.9711 1.1482 0.0000
1.0077 1.1518 0.3837
0.0000 1.1518 0.2100
0.0000 1.1518 0.2841
0.0000 1.1518 0.4862
0.9519 1.1518 0.8377
1.0077 1.1518 1.0837
0.1902 0.0000 0.6415
0.2807 0.0000 0.6481
0.5797 0.0000 0.6496
1.0077 0.0000 0.6597
1.0077 0.0000 0.7125
0.0000 0.0000 0.6344
0.1155 0.0000 0.6360
0.5915 0.0000 0.6402
1.0077 0.0000 0.6597
1.0077 0.0000 0.7257
0.0000 0.6267 0.6089
0.0000 0.6115 0.6137
0.4674 0.5441 0.6336
1.0077 0.3375 0.6839
1.0077 0.0000 0.8020
0.0000 1.1518 0.6583
0.0000 1.1518 0.6722
0.0000 1.1518 0.7273
1.0077 1.1518 0.8539
1.0077 1.1518 1.0837
0.0000 1.1518 1.0837
0.0000 1.1518 1.0837
0.0000 1.1518 1.0837
1.0077 1.1518 1.0837
1.0077 1.1518 1.0837
0.3448 0.0000 1.0837
0.3670 0.0000 1.0837
0.6398 0.0000 1.0837
1.0077 0.0000 1.0837
1.0077 0.0000 1.0837
0.0000 0.0000 1.0837
0.1572 0.0000 1.0837
0.6277 0.0000 1.0837
1.0077 0.0000 1.0837
1.0077 0.0000 1.0837
0.0000 0.6390 1.0837
0.0000 0.6253 1.0837
0.4970 0.5657 1.0837
1.0077 0.3995 1.0837
1.0077 0.0000 1.0837
0.0000 1.1518 1.0837
0.0000 1.1518 1.0837
0.0000 1.1518 1.0837
1.0077 1.1518 1.0837
1.0077 1.1518 1.0837
0.0000 1.1518 1.0837
0.0000 1.1518 1.0837
1.0077 1.1518 1.0837
1.0077 1.1518 1.0837
1.0077 1.1518 1.0837
0.2138 0.0000 1.0837
0.3161 0.0000 1.0837
0.6830 0.0000 1.0837
1.0077 0.0000 1.0837
1.0077 0.0000 1.0837
0.0000 0.0000 1.0837
0.0000 0.0000 1.0837
0.6528 0.0000 1.0837
1.0077 0.0000 1.0837
1.0077 0.0000 1.0837
0.0000 0.7255 1.0837
0.0000 0.7194 1.0837
0.5057 0.6969 1.0837
1.0077 0.6724 1.0837
1.0077 0.8499 1.0837
0.0000 1.1518 1.0837
0.0000 1.1518 1.0837
0.3815 1.1518 1.0837
1.0077 1.1518 1.0837
1.0077 1.1518 1.0837
1.0077 1.1518 1.0837
1.0077 1.1518 1.0837
1.0077 1.1518 1.0837
1.0077 1.1518 1.0837
1.0077 1.1518 1.0837
