images/hero.cube
LUT_3D_SIZE 9
0.0000 0.0000 0.0000
0.0000 0.0000 0.0000
0.3311 0.0000 0.0000
0.2106 0.0000 0.0000
0.5243 0.0000 0.0000
0.8064 0.0000 0.0000
1.0077 0.0000 0.0000
1.0077 0.0000 0.0607
1.0077 0.0000 0.0744
0.0000 0.0000 0.0000
0.0000 0.0000 0.0000
0.1104 0.0000 0.0000
0.2429 0.0000 0.0000
0.5422 0.0000 0.0000
0.8123 0.0000 0.0000
1.0077 0.0000 0.0000
1.0077 0.0000 0.0466
1.0077 0.0000 0.0545
0.0000 0.1380 0.0000
0.0000 0.1428 0.0000
0.0000 0.1422 0.0000
0.3133 0.0000 0.0000
0.5673 0.0000 0.0000
0.8217 0.0000 0.0000
1.0077 0.0000 0.0000
1.0077 0.0000 0.0000
1.0077 0.0000 0.0000
0.0000 0.3935 0.0000
0.0000 0.3908 0.0000
0.0000 0.3778 0.0000
0.1915 0.3420 0.0000
0.5382 0.2548 0.0000
0.8095 0.0000 0.0000
1.0077 0.0000 0.0000
1.0077 0.0000 0.0000
1.0077 0.0000 0.0000
0.0000 0.6340 0.0000
0.0000 0.6308 0.0000
0.0000 0.6188 0.0000
0.0000 0.5942 0.0000
0.3972 0.5512 0.0000
0.7525 0.4792 0.0000
1.0077 0.3506 0.0000
1.0077 0.0000 0.0000
1.0077 0.0000 0.0000
0.0000 0.8839 0.0000
0.0000 0.8816 0.0000
0.0000 0.8732 0.0000
0.0000 0.8572 0.0000
0.0000 0.8320 0.0000
0.6209 0.7958 0.0000
0.9994 0.7456 0.0000
1.0077 0.6780 0.0000
1.0077 0.5892 0.0000
0.0000 1.1518 0.0000
0.0000 1.1518 0.0000
0.0000 1.1518 0.0000
0.0000 1.1518 0.0000
0.0000 1.1465 0.0000
0.2730 1.1347 0.0000
0.9080 1.1229 0.0000
1.0077 1.1154 0.0000
1.0077 1.1220 0.0000
0.0000 1.1518 0.0000
0.0000 1.1518 0.0000
0.0000 1.1518 0.0000
0.0000 1.1518 0.0000
0.0000 1.1518 0.0000
0.0000 1.1518 0.0000
0.7746 1.1518 0.0000
1.0077 1.1518 0.0000
1.0077 1.1518 0.2730
0.0000 1.1518 0.0000
0.0000 1.1518 0.0000
0.0000 1.1518 0.0000
0.0000 1.1518 0.0000
0.0000 1.1518 0.0000
0.0000 1.1518 0.0000
0.7071 1.1518 0.3858
1.0077 1.1518 0.7053
1.0077 1.1518 1.0837
0.0000 0.0000 0.0000
0.0000 0.0000 0.0000
0.2801 0.0000 0.0000
0.2404 0.0000 0.0000
0.5333 0.0000 0.0406
0.8093 0.0000 0.0673
1.0077 0.0000 0.0797
1.0077 0.0000 0.0843
1.0077 0.0000 0.0860
0.0000 0.0361 0.0000
0.0000 0.0000 0.0000
0.1170 0.0000 0.0000
0.2689 0.0000 0.0000
0.5490 0.0000 0.0393
0.8151 0.0000 0.0598
1.0077 0.0000 0.0692
1.0077 0.0000 0.0715
1.0077 0.0000 0.0716
0.0000 0.1225 0.0000
0.0000 0.1293 0.0000
0.0000 0.1271 0.0000
0.3230 0.0000 0.0000
0.5719 0.0000 0.0000
0.8248 0.0000 0.0000
1.0077 0.0000 0.0000
1.0077 0.0000 0.0000
1.0077 0.0000 0.0000
0.0000 0.3899 0.0000
0.0000 0.3870 0.0000
0.0000 0.3736 0.0000
0.2087 0.3370 0.0000
0.5440 0.2478 0.0000
0.8140 0.0000 0.0000
1.0077 0.0000 0.0000
1.0077 0.0000 0.0000
1.0077 0.0000 0.0000
0.0000 0.6314 0.0000
0.0000 0.6282 0.0000
0.0000 0.6163 0.0000
0.0000 0.5918 0.0000
0.4086 0.5489 0.0000
0.7596 0.4767 0.0000
1.0077 0.3469 0.0000
1.0077 0.0000 0.0000
1.0077 0.0000 0.0000
0.0000 0.8832 0.0000
0.0000 0.8809 0.0000
0.0000 0.8726 0.0000
0.0000 0.8568 0.0000
0.0000 0.8320 0.0000
0.6330 0.7962 0.0000
1.0077 0.7467 0.0000
1.0077 0.6802 0.0000
1.0077 0.5935 0.0000
0.0000 1.1518 0.0000
0.0000 1.1518 0.0000
0.0000 1.1518 0.0000
0.0000 1.1518 0.0000
0.0000 1.1497 0.0000
0.3121 1.1388 0.0000
0.9236 1.1283 0.0000
1.0077 1.1229 0.0000
1.0077 1.1328 0.0000
0.0000 1.1518 0.0000
0.0000 1.1518 0.0000
0.0000 1.1518 0.0000
0.0000 1.1518 0.0000
0.0000 1.1518 0.0000
0.0000 1.1518 0.0000
0.8023 1.1518 0.0000
1.0077 1.1518 0.0000
1.0077 1.1518 0.4141
0.0000 1.1518 0.0000
0.0000 1.1518 0.0000
0.0000 1.1518 0.0000
0.0000 1.1518 0.0000
0.0000 1.1518 0.0000
0.0000 1.1518 0.2323
0.7672 1.1518 0.5149
1.0077 1.1518 0.8090
1.0077 1.1518 1.0837
0.0000 0.1688 0.0929
0.0000 0.0000 0.1181
0.1611 0.0000 0.1526
0.2610 0.0000 0.1700
0.5409 0.0000 0.1805
0.8109 0.0000 0.1880
1.0077 0.0000 0.1971
1.0077 0.0000 0.2109
1.0077 0.0000 0.2328
0.0000 0.1353 0.1231
0.0000 0.0556 0.1359
0.0813 0.0000 0.1570
0.2922 0.0000 0.1710
0.5542 0.0000 0.1792
0.8169 0.0000 0.1859
1.0077 0.0000 0.1948
1.0077 0.0000 0.2090
1.0077 0.0000 0.2316
0.0000 0.1393 0.1537
0.0000 0.1424 0.1555
0.0000 0.1311 0.1599
0.3269 0.0000 0.1646
0.5745 0.0000 0.1691
0.8282 0.0000 0.1751
1.0077 0.0000 0.1848
1.0077 0.0000 0.2009
1.0077 0.0000 0.2269
0.0000 0.3908 0.1202
0.0000 0.3874 0.1211
0.0000 0.3725 0.1238
0.2211 0.3339 0.1280
0.5511 0.2404 0.1341
0.8222 0.0000 0.1436
1.0077 0.0000 0.1585
1.0077 0.0000 0.1820
1.0077 0.0000 0.2183
0.0000 0.6287 0.0000
0.0000 0.6255 0.0000
0.0000 0.6134 0.0000
0.0000 0.5888 0.0000
0.4305 0.5456 0.0000
0.7764 0.4727 0.0182
1.0077 0.3403 0.0938
1.0077 0.0000 0.1483
1.0077 0.0000 0.2125
0.0000 0.8836 0.0000
0.0000 0.8814 0.0000
0.0000 0.8734 0.0000
0.0000 0.8583 0.0000
0.0000 0.8345 0.0000
0.6647 0.8001 0.0000
1.0077 0.7528 0.0000
1.0077 0.6900 0.1208
1.0077 0.6109 0.2438
0.0000 1.1518 0.0000
0.0000 1.1518 0.0000
0.0000 1.1518 0.0000
0.0000 1.1518 0.0000
0.0000 1.1518 0.0000
0.4041 1.1518 0.0000
0.9711 1.1482 0.0000
1.0077 1.1499 0.2179
1.0077 1.1518 0.3837
0.0000 1.1518 0.0000
0.0000 1.1518 0.0000
0.0000 1.1518 0.0000
0.0000 1.1518 0.0000
0.0000 1.1518 0.0000
0.0000 1.1518 0.1030
0.8889 1.1518 0.3168
1.0077 1.1518 0.4999
1.0077 1.1518 0.7281
0.0000 1.1518 0.2100
0.0000 1.1518 0.2279
0.0000 1.1518 0.2841
0.0000 1.1518 0.3711
0.0000 1.1518 0.4862
0.0000 1.1518 0.6360
0.9519 1.1518 0.8377
1.0077 1.1518 1.0837
1.0077 1.1518 1.0837
0.0000 0.0460 0.3799
0.0000 0.0000 0.3893
0.1853 0.0000 0.4036
0.3138 0.0000 0.4101
0.5559 0.0000 0.4116
0.8167 0.0000 0.4131
1.0077 0.0000 0.4187
1.0077 0.0000 0.4325
1.0077 0.0000 0.4586
0.0000 0.0000 0.3914
0.1333 0.0000 0.3958
0.1842 0.0000 0.4036
0.3298 0.0000 0.4078
0.5656 0.0000 0.4092
0.8223 0.0000 0.4113
1.0077 0.0000 0.4178
1.0077 0.0000 0.4325
1.0077 0.0000 0.4598
0.0000 0.0944 0.3942
0.0000 0.0940 0.3951
0.0296 0.0540 0.3971
0.3372 0.0000 0.3989
0.5801 0.0000 0.4009
0.8341 0.0000 0.4052
1.0077 0.0000 0.4147
1.0077 0.0000 0.4330
1.0077 0.0000 0.4648
0.0000 0.3859 0.3777
0.0000 0.3820 0.3782
0.0000 0.3655 0.3798
0.2271 0.3241 0.3827
0.5578 0.2229 0.3876
0.8324 0.0000 0.3963
1.0077 0.0000 0.4115
1.0077 0.0000 0.4368
1.0077 0.0000 0.4775
0.0000 0.6272 0.3528
0.0000 0.6240 0.3537
0.0000 0.6119 0.3569
0.0000 0.5873 0.3630
0.4502 0.5440 0.3730
0.7964 0.4706 0.3889
1.0077 0.3362 0.4134
1.0077 0.0000 0.4508
1.0077 0.0000 0.5078
0.0000 0.8886 0.3297
0.0000 0.8866 0.3314
0.0000 0.8791 0.3374
0.0000 0.8651 0.3490
0.0000 0.8429 0.3674
0.7040 0.8111 0.3949
1.0077 0.7678 0.4351
1.0077 0.7123 0.4934
1.0077 0.6484 0.5789
0.0000 1.1518 0.3314
0.0000 1.1518 0.3345
0.0000 1.1518 0.3455
0.0000 1.1518 0.3663
0.0000 1.1518 0.3988
0.5049 1.1518 0.4460
1.0077 1.1518 0.5127
1.0077 1.1518 0.6074
1.0077 1.1518 0.7446
0.0000 1.1518 0.4209
0.0000 1.1518 0.4261
0.0000 1.1518 0.4448
0.0000 1.1518 0.4799
0.0000 1.1518 0.5346
0.0000 1.1518 0.6141
1.0077 1.1518 0.7273
1.0077 1.1518 0.8907
1.0077 1.1518 1.0837
0.0000 1.1518 0.7151
0.0000 1.1518 0.7237
0.0000 1.1518 0.7552
0.0000 1.1518 0.8156
0.0000 1.1518 0.9126
0.0000 1.1518 1.0593
1.0077 1.1518 1.0837
1.0077 1.1518 1.0837
1.0077 1.1518 1.0837
0.1902 0.0000 0.6415
0.2496 0.0000 0.6440
0.2807 0.0000 0.6481
0.3721 0.0000 0.6496
0.5797 0.0000 0.6496
0.8299 0.0000 0.6516
1.0077 0.0000 0.6597
1.0077 0.0000 0.6781
1.0077 0.0000 0.7125
0.2292 0.0000 0.6416
0.2486 0.0000 0.6430
0.2601 0.0000 0.6455
0.3740 0.0000 0.6466
0.5853 0.0000 0.6472
0.8348 0.0000 0.6502
1.0077 0.0000 0.6594
1.0077 0.0000 0.6792
1.0077 0.0000 0.7151
0.0000 0.0000 0.6344
0.0000 0.0000 0.6349
0.1155 0.0000 0.6360
0.3554 0.0000 0.6375
0.5915 0.0000 0.6402
0.8458 0.0000 0.6465
1.0077 0.0000 0.6597
1.0077 0.0000 0.6841
1.0077 0.0000 0.7257
0.0000 0.3708 0.6201
0.0000 0.3663 0.6206
0.0000 0.3477 0.6225
0.2320 0.3016 0.6263
0.5665 0.1825 0.6330
0.8466 0.0000 0.6448
1.0077 0.0000 0.6649
1.0077 0.0000 0.6979
1.0077 0.0000 0.7503
0.0000 0.6267 0.6089
0.0000 0.6235 0.6099
0.0000 0.6115 0.6137
0.0000 0.5870 0.6211
0.4674 0.5441 0.6336
0.8195 0.4711 0.6534
1.0077 0.3375 0.6839
1.0077 0.0000 0.7307
1.0077 0.0000 0.8020
0.0000 0.9002 0.6140
0.0000 0.8984 0.6157
0.0000 0.8919 0.6223
0.0000 0.8794 0.6350
0.0000 0.8599 0.6558
0.7474 0.8323 0.6874
1.0077 0.7962 0.7343
1.0077 0.7536 0.8039
1.0077 0.7158 0.9080
0.0000 1.1518 0.6583
0.0000 1.1518 0.6613
0.0000 1.1518 0.6722
0.0000 1.1518 0.6933
0.0000 1.1518 0.7273
0.6065 1.1518 0.7785
1.0077 1.1518 0.8539
1.0077 1.1518 0.9650
1.0077 1.1518 1.0837
0.0000 1.1518 0.7933
0.0000 1.1518 0.7985
0.0000 1.1518 0.8173
0.0000 1.1518 0.8536
0.0000 1.1518 0.9125
0.3741 1.1518 1.0017
1.0077 1.1518 1.0837
1.0077 1.1518 1.0837
1.0077 1.1518 1.0837
0.0000 1.1518 1.0837
0.0000 1.1518 1.0837
0.0000 1.1518 1.0837
0.0000 1.1518 1.0837
0.0000 1.1518 1.0837
0.6243 1.1518 1.0837
1.0077 1.1518 1.0837
1.0077 1.1518 1.0837
1.0077 1.1518 1.0837
0.3126 0.0000 0.8849
0.3274 0.0000 0.8858
0.3379 0.0000 0.8875
0.4219 0.0000 0.8888
0.6092 0.0000 0.8910
0.8514 0.0000 0.8972
1.0077 0.0000 0.9115
1.0077 0.0000 0.9389
1.0077 0.0000 0.9866
0.2882 0.0000 0.8827
0.2930 0.0000 0.8833
0.3092 0.0000 0.8848
0.4149 0.0000 0.8864
0.6109 0.0000 0.8894
0.8554 0.0000 0.8967
1.0077 0.0000 0.9123
1.0077 0.0000 0.9413
1.0077 0.0000 0.9909
0.0000 0.0000 0.8747
0.0000 0.0000 0.8752
0.1545 0.0000 0.8768
0.3760 0.0000 0.8798
0.6084 0.0000 0.8856
0.8645 0.0000 0.8966
1.0077 0.0000 0.9167
1.0077 0.0000 0.9512
1.0077 0.0000 1.0078
0.0000 0.3461 0.8652
0.0000 0.3408 0.8660
0.0000 0.3190 0.8690
0.2340 0.2650 0.8749
0.5780 0.0909 0.8853
0.8665 0.0000 0.9026
1.0077 0.0000 0.9308
1.0077 0.0000 0.9756
1.0077 0.0000 1.0458
0.0000 0.6290 0.8653
0.0000 0.6259 0.8667
0.0000 0.6142 0.8719
0.0000 0.5904 0.8821
0.4832 0.5488 0.8991
0.8475 0.4786 0.9257
1.0077 0.3529 0.9664
1.0077 0.0000 1.0282
1.0077 0.0000 1.0837
0.0000 0.9216 0.8907
0.0000 0.9202 0.8930
0.0000 0.9149 0.9014
0.0000 0.9050 0.9178
0.1625 0.8899 0.9445
0.7967 0.8694 0.9852
1.0077 0.8454 1.0460
1.0077 0.8248 1.0837
1.0077 0.8290 1.0837
0.0000 1.1518 0.9692
0.0000 1.1518 0.9729
0.0000 1.1518 0.9865
0.0000 1.1518 1.0129
0.0000 1.1518 1.0557
0.7154 1.1518 1.0837
1.0077 1.1518 1.0837
1.0077 1.1518 1.0837
1.0077 1.1518 1.0837
0.0000 1.1518 1.0837
0.0000 1.1518 1.0837
0.0000 1.1518 1.0837
0.0000 1.1518 1.0837
0.0000 1.1518 1.0837
0.6998 1.1518 1.0837
1.0077 1.1518 1.0837
1.0077 1.1518 1.0837
1.0077 1.1518 1.0837
0.0000 1.1518 1.0837
0.0000 1.1518 1.0837
0.0000 1.1518 1.0837
0.0000 1.1518 1.0837
0.0000 1.1518 1.0837
1.0077 1.1518 1.0837
1.0077 1.1518 1.0837
1.0077 1.1518 1.0837
1.0077 1.1518 1.0837
0.3448 0.0000 1.0837
0.3491 0.0000 1.0837
0.3670 0.0000 1.0837
0.4585 0.0000 1.0837
0.6398 0.0000 1.0837
0.8802 0.0000 1.0837
1.0077 0.0000 1.0837
1.0077 0.0000 1.0837
1.0077 0.0000 1.0837
0.2962 0.0000 1.0837
0.3002 0.0000 1.0837
0.3335 0.0000 1.0837
0.4458 0.0000 1.0837
0.6383 0.0000 1.0837
0.8831 0.0000 1.0837
1.0077 0.0000 1.0837
1.0077 0.0000 1.0837
1.0077 0.0000 1.0837
0.0000 0.0000 1.0837
0.0000 0.0000 1.0837
0.1572 0.0000 1.0837
0.3912 0.0000 1.0837
0.6277 0.0000 1.0837
0.8901 0.0000 1.0837
1.0077 0.0000 1.0837
1.0077 0.0000 1.0837
1.0077 0.0000 1.0837
0.0000 0.3174 1.0837
0.0000 0.3111 1.0837
0.0000 0.2852 1.0837
0.2223 0.2188 1.0837
0.5907 0.0000 1.0837
0.8928 0.0000 1.0837
1.0077 0.0000 1.0837
1.0077 0.0000 1.0837
1.0077 0.0000 1.0837
0.0000 0.6390 1.0837
0.0000 0.6361 1.0837
0.0000 0.6253 1.0837
0.0000 0.6035 1.0837
0.4970 0.5657 1.0837
0.8820 0.5035 1.0837
1.0077 0.3995 1.0837
1.0077 0.1806 1.0837
1.0077 0.0000 1.0837
0.0000 0.9587 1.0837
0.0000 0.9578 1.0837
0.0000 0.9546 1.0837
0.0000 0.9489 1.0837
0.2379 0.9409 1.0837
0.8558 0.9325 1.0837
1.0077 0.9288 1.0837
1.0077 0.9444 1.0837
1.0077 1.0139 1.0837
0.0000 1.1518 1.0837
0.0000 1.1518 1.0837
0.0000 1.1518 1.0837
0.0000 1.1518 1.0837
0.0000 1.1518 1.0837
0.8442 1.1518 1.0837
1.0077 1.1518 1.0837
1.0077 1.1518 1.0837
1.0077 1.1518 1.0837
0.0000 1.1518 1.0837
0.0000 1.1518 1.0837
0.0000 1.1518 1.0837
0.0000 1.1518 1.0837
0.0000 1.1518 1.0837
1.0077 1.1518 1.0837
1.0077 1.1518 1.0837
1.0077 1.1518 1.0837
1.0077 1.1518 1.0837
0.0000 1.1518 1.0837
0.0000 1.1518 1.0837
0.0000 1.1518 1.0837
0.0000 1.1518 1.0837
1.0077 1.1518 1.0837
1.0077 1.1518 1.0837
1.0077 1.1518 1.0837
1.0077 1.1518 1.0837
1.0077 1.1518 1.0837
0.3205 0.0000 1.0837
0.3271 0.0000 1.0837
0.3660 0.0000 1.0837
0.4771 0.0000 1.0837
0.6666 0.0000 1.0837
0.9142 0.0000 1.0837
1.0077 0.0000 1.0837
1.0077 0.0000 1.0837
1.0077 0.0000 1.0837
0.2547 0.0000 1.0837
0.2673 0.0000 1.0837
0.3265 0.0000 1.0837
0.4600 0.0000 1.0837
0.6625 0.0000 1.0837
0.9162 0.0000 1.0837
1.0077 0.0000 1.0837
1.0077 0.0000 1.0837
1.0077 0.0000 1.0837
0.0000 0.0000 1.0837
0.0000 0.0000 1.0837
0.0497 0.0000 1.0837
0.3901 0.0000 1.0837
0.6448 0.0000 1.0837
0.9215 0.0000 1.0837
1.0077 0.0000 1.0837
1.0077 0.0000 1.0837
1.0077 0.0000 1.0837
0.0000 0.3005 1.0837
0.0000 0.2935 1.0837
0.0000 0.2648 1.0837
0.1663 0.1892 1.0837
0.6006 0.0000 1.0837
0.9254 0.0000 1.0837
1.0077 0.0000 1.0837
1.0077 0.0000 1.0837
1.0077 0.0000 1.0837
0.0000 0.6664 1.0837
0.0000 0.6641 1.0837
0.0000 0.6553 1.0837
0.0000 0.6379 1.0837
0.5061 0.6086 1.0837
0.9249 0.5635 1.0837
1.0077 0.4993 1.0837
1.0077 0.4224 1.0837
1.0077 0.3972 1.0837
0.0000 1.0215 1.0837
0.0000 1.0215 1.0837
0.0000 1.0217 1.0837
0.0000 1.0229 1.0837
0.2933 1.0270 1.0837
0.9312 1.0386 1.0837
1.0077 1.0687 1.0837
1.0077 1.1428 1.0837
1.0077 1.1518 1.0837
0.0000 1.1518 1.0837
0.0000 1.1518 1.0837
0.0000 1.1518 1.0837
0.0000 1.1518 1.0837
0.0000 1.1518 1.0837
1.0077 1.1518 1.0837
1.0077 1.1518 1.0837
1.0077 1.1518 1.0837
1.0077 1.1518 1.0837
0.0000 1.1518 1.0837
0.0000 1.1518 1.0837
0.0000 1.1518 1.0837
0.0000 1.1518 1.0837
0.4640 1.1518 1.0837
1.0077 1.1518 1.0837
1.0077 1.1518 1.0837
1.0077 1.1518 1.0837
1.0077 1.1518 1.0837
0.0000 1.1518 1.0837
0.0000 1.1518 1.0837
0.0000 1.1518 1.0837
1.0077 1.1518 1.0837
1.0077 1.1518 1.0837
1.0077 1.1518 1.0837
1.0077 1.1518 1.0837
1.0077 1.1518 1.0837
1.0077 1.1518 1.0837
0.2138 0.0000 1.0837
0.2350 0.0000 1.0837
0.3161 0.0000 1.0837
0.4680 0.0000 1.0837
0.6830 0.0000 1.0837
0.9502 0.0000 1.0837
1.0077 0.0000 1.0837
1.0077 0.0000 1.0837
1.0077 0.0000 1.0837
0.0000 0.0000 1.0837
0.1119 0.0000 1.0837
0.2601 0.0000 1.0837
0.4460 0.0000 1.0837
0.6768 0.0000 1.0837
0.9517 0.0000 1.0837
1.0077 0.0000 1.0837
1.0077 0.0000 1.0837
1.0077 0.0000 1.0837
0.0000 0.0000 1.0837
0.0000 0.0000 1.0837
0.0000 0.0000 1.0837
0.3540 0.0000 1.0837
0.6528 0.0000 1.0837
0.9565 0.0000 1.0837
1.0077 0.0000 1.0837
1.0077 0.0000 1.0837
1.0077 0.0000 1.0837
0.0000 0.3258 1.0837
0.0000 0.3197 1.0837
0.0000 0.2957 1.0837
0.0000 0.2380 1.0837
0.6011 0.0000 1.0837
0.9638 0.0000 1.0837
1.0077 0.0000 1.0837
1.0077 0.0000 1.0837
1.0077 0.0000 1.0837
0.0000 0.7255 1.0837
0.0000 0.7242 1.0837
0.0000 0.7194 1.0837
0.0000 0.7104 1.0837
0.5057 0.6969 1.0837
0.9791 0.6809 1.0837
1.0077 0.6724 1.0837
1.0077 0.7035 1.0837
1.0077 0.8499 1.0837
0.0000 1.1254 1.0837
0.0000 1.1270 1.0837
0.0000 1.1329 1.0837
0.0000 1.1456 1.0837
0.3504 1.1518 1.0837
1.0077 1.1518 1.0837
1.0077 1.1518 1.0837
1.0077 1.1518 1.0837
1.0077 1.1518 1.0837
0.0000 1.1518 1.0837
0.0000 1.1518 1.0837
0.0000 1.1518 1.0837
0.0000 1.1518 1.0837
0.3815 1.1518 1.0837
1.0077 1.1518 1.0837
1.0077 1.1518 1.0837
1.0077 1.1518 1.0837
1.0077 1.1518 1.0837
0.0000 1.1518 1.0837
0.0000 1.1518 1.0837
0.0000 1.1518 1.0837
0.0000 1.1518 1.0837
1.0077 1.1518 1.0837
1.0077 1.1518 1.0837
1.0077 1.1518 1.0837
1.0077 1.1518 1.0837
1.0077 1.1518 1.0837
1.0077 1.1518 1.0837
1.0077 1.1518 1.0837
1.0077 1.1518 1.0837
1.0077 1.1518 1.0837
1.0077 1.1518 1.0837
1.0077 1.1518 1.0837
1.0077 1.1518 1.0837
1.0077 1.1518 1.0837
1.0077 1.1518 1.0837
