images/hero.cube
LUT_3D_SIZE 33
0.0000 0.0000 0.0000
0.0000 0.0000 0.0000
0.0000 0.0000 0.0000
0.0000 0.0000 0.0000
0.0000 0.0000 0.0000
0.1785 0.0000 0.0000
0.3755 0.0000 0.0000
0.3714 0.0000 0.0000
0.3311 0.0000 0.0000
0.2731 0.0000 0.0000
0.2003 0.0000 0.0000
0.1680 0.0000 0.0000
0.2106 0.0000 0.0000
0.2858 0.0000 0.0000
0.3672 0.0000 0.0000
0.4477 0.0000 0.0000
0.5243 0.0000 0.0000
0.5977 0.0000 0.0000
0.6687 0.0000 0.0000
0.7381 0.0000 0.0000
0.8064 0.0000 0.0000
0.8738 0.0000 0.0000
0.9408 0.0000 0.0000
1.0075 0.0000 0.0000
1.0077 0.0000 0.0000
1.0077 0.0000 0.0000
1.0077 0.0000 0.0317
1.0077 0.0000 0.0500
1.0077 0.0000 0.0607
1.0077 0.0000 0.0678
1.0077 0.0000 0.0723
1.0077 0.0000 0.0745
1.0077 0.0000 0.0744
0.0000 0.0000 0.0000
0.0000 0.0000 0.0000
0.0000 0.0000 0.0000
0.0000 0.0000 0.0000
0.0000 0.0000 0.0000
0.1285 0.0000 0.0000
0.3497 0.0000 0.0000
0.3531 0.0000 0.0000
0.3176 0.0000 0.0000
0.2621 0.0000 0.0000
0.1911 0.0000 0.0000
0.1640 0.0000 0.0000
0.2108 0.0000 0.0000
0.2872 0.0000 0.0000
0.3688 0.0000 0.0000
0.4491 0.0000 0.0000
0.5253 0.0000 0.0000
0.5984 0.0000 0.0000
0.6693 0.0000 0.0000
0.7385 0.0000 0.0000
0.8067 0.0000 0.0000
0.8741 0.0000 0.0000
0.9410 0.0000 0.0000
1.0077 0.0000 0.0000
1.0077 0.0000 0.0000
1.0077 0.0000 0.0000
1.0077 0.0000 0.0310
1.0077 0.0000 0.0495
1.0077 0.0000 0.0602
1.0077 0.0000 0.0673
1.0077 0.0000 0.0717
1.0077 0.0000 0.0739
1.0077 0.0000 0.0736
0.0000 0.0000 0.0000
0.0000 0.0000 0.0000
0.0000 0.0000 0.0000
0.0000 0.0000 0.0000
0.0000 0.0000 0.0000
0.0000 0.0000 0.0000
0.2701 0.0000 0.0000
0.2952 0.0000 0.0000
0.2730 0.0000 0.0000
0.2244 0.0000 0.0000
0.1600 0.0000 0.0000
0.1529 0.0000 0.0000
0.2132 0.0000 0.0000
0.2929 0.0000 0.0000
0.3747 0.0000 0.0000
0.4537 0.0000 0.0000
0.5288 0.0000 0.0000
0.6010 0.0000 0.0000
0.6712 0.0000 0.0000
0.7400 0.0000 0.0000
0.8078 0.0000 0.0000
0.8750 0.0000 0.0000
0.9417 0.0000 0.0000
1.0077 0.0000 0.0000
1.0077 0.0000 0.0000
1.0077 0.0000 0.0000
1.0077 0.0000 0.0283
1.0077 0.0000 0.0475
1.0077 0.0000 0.0582
1.0077 0.0000 0.0652
1.0077 0.0000 0.0695
1.0077 0.0000 0.0713
1.0077 0.0000 0.0707
0.0000 0.0000 0.0000
0.0000 0.0000 0.0000
0.0000 0.0000 0.0000
0.0000 0.0000 0.0000
0.0000 0.0000 0.0000
0.0000 0.0000 0.0000
0.1535 0.0000 0.0000
0.2100 0.0000 0.0000
0.2027 0.0000 0.0000
0.1602 0.0000 0.0000
0.1115 0.0000 0.0000
0.1454 0.0000 0.0000
0.2224 0.0000 0.0000
0.3049 0.0000 0.0000
0.3854 0.0000 0.0000
0.4616 0.0000 0.0000
0.5346 0.0000 0.0000
0.6054 0.0000 0.0000
0.6745 0.0000 0.0000
0.7425 0.0000 0.0000
0.8098 0.0000 0.0000
0.8765 0.0000 0.0000
0.9429 0.0000 0.0000
1.0077 0.0000 0.0000
1.0077 0.0000 0.0000
1.0077 0.0000 0.0000
1.0077 0.0000 0.0218
1.0077 0.0000 0.0432
1.0077 0.0000 0.0541
1.0077 0.0000 0.0609
1.0077 0.0000 0.0649
1.0077 0.0000 0.0663
1.0077 0.0000 0.0649
0.0000 0.0000 0.0000
0.0000 0.0000 0.0000
0.0000 0.0000 0.0000
0.0000 0.0000 0.0000
0.0000 0.0000 0.0000
0.0000 0.0000 0.0000
0.0000 0.0000 0.0000
0.1053 0.0000 0.0000
0.1104 0.0000 0.0000
0.0578 0.0647 0.0000
0.0718 0.0743 0.0000
0.1580 0.0000 0.0000
0.2429 0.0000 0.0000
0.3235 0.0000 0.0000
0.3992 0.0000 0.0000
0.4718 0.0000 0.0000
0.5422 0.0000 0.0000
0.6111 0.0000 0.0000
0.6788 0.0000 0.0000
0.7459 0.0000 0.0000
0.8123 0.0000 0.0000
0.8785 0.0000 0.0000
0.9445 0.0000 0.0000
1.0077 0.0000 0.0000
1.0077 0.0000 0.0000
1.0077 0.0000 0.0000
1.0077 0.0000 0.0000
1.0077 0.0000 0.0348
1.0077 0.0000 0.0466
1.0077 0.0000 0.0534
1.0077 0.0000 0.0568
1.0077 0.0000 0.0573
1.0077 0.0000 0.0545
0.0000 0.1889 0.0000
0.0000 0.1858 0.0000
0.0000 0.1756 0.0000
0.0000 0.1587 0.0000
0.0000 0.1380 0.0000
0.0000 0.1172 0.0000
0.0000 0.1014 0.0000
0.0000 0.0951 0.0000
0.0000 0.0981 0.0000
0.0000 0.0963 0.0000
0.1034 0.0681 0.0000
0.1931 0.0000 0.0000
0.2705 0.0000 0.0000
0.3433 0.0000 0.0000
0.4138 0.0000 0.0000
0.4827 0.0000 0.0000
0.5504 0.0000 0.0000
0.6173 0.0000 0.0000
0.6837 0.0000 0.0000
0.7496 0.0000 0.0000
0.8152 0.0000 0.0000
0.8808 0.0000 0.0000
0.9463 0.0000 0.0000
1.0077 0.0000 0.0000
1.0077 0.0000 0.0000
1.0077 0.0000 0.0000
1.0077 0.0000 0.0000
1.0077 0.0000 0.0108
1.0077 0.0000 0.0317
1.0077 0.0000 0.0393
1.0077 0.0000 0.0420
1.0077 0.0000 0.0405
1.0077 0.0000 0.0332
0.0000 0.1759 0.0000
0.0000 0.1739 0.0000
0.0000 0.1671 0.0000
0.0000 0.1557 0.0000
0.0000 0.1413 0.0000
0.0000 0.1262 0.0000
0.0000 0.1134 0.0000
0.0000 0.1053 0.0000
0.0000 0.0973 0.0000
0.0665 0.0782 0.0000
0.1535 0.0000 0.0000
0.2250 0.0000 0.0000
0.2934 0.0000 0.0000
0.3604 0.0000 0.0000
0.4268 0.0000 0.0000
0.4926 0.0000 0.0000
0.5581 0.0000 0.0000
0.6233 0.0000 0.0000
0.6883 0.0000 0.0000
0.7532 0.0000 0.0000
0.8181 0.0000 0.0000
0.8830 0.0000 0.0000
0.9481 0.0000 0.0000
1.0077 0.0000 0.0000
1.0077 0.0000 0.0000
1.0077 0.0000 0.0000
1.0077 0.0000 0.0000
1.0077 0.0000 0.0000
1.0077 0.0000 0.0000
1.0077 0.0000 0.0000
1.0077 0.0000 0.0000
1.0077 0.0000 0.0000
1.0077 0.0000 0.0000
0.0000 0.1281 0.0000
0.0000 0.1270 0.0000
0.0000 0.1232 0.0000
0.0000 0.1174 0.0000
0.0000 0.1111 0.0000
0.0000 0.1070 0.0000
0.0000 0.1069 0.0000
0.0000 0.1065 0.0000
0.0000 0.1009 0.0000
0.1032 0.0859 0.0000
0.1770 0.0472 0.0000
0.2435 0.0000 0.0000
0.3082 0.0000 0.0000
0.3723 0.0000 0.0000
0.4363 0.0000 0.0000
0.5002 0.0000 0.0000
0.5641 0.0000 0.0000
0.6280 0.0000 0.0000
0.6920 0.0000 0.0000
0.7561 0.0000 0.0000
0.8204 0.0000 0.0000
0.8849 0.0000 0.0000
0.9496 0.0000 0.0000
1.0077 0.0000 0.0000
1.0077 0.0000 0.0000
1.0077 0.0000 0.0000
1.0077 0.0000 0.0000
1.0077 0.0000 0.0000
1.0077 0.0000 0.0000
1.0077 0.0000 0.0000
1.0077 0.0000 0.0000
1.0077 0.0000 0.0000
1.0077 0.0000 0.0000
0.0000 0.1380 0.0000
0.0000 0.1381 0.0000
0.0000 0.1387 0.0000
0.0000 0.1403 0.0000
0.0000 0.1428 0.0000
0.0000 0.1454 0.0000
0.0000 0.1470 0.0000
0.0000 0.1464 0.0000
0.0000 0.1422 0.0000
0.0877 0.1326 0.0000
0.1773 0.1144 0.0000
0.2476 0.0789 0.0000
0.3133 0.0000 0.0000
0.3774 0.0000 0.0000
0.4408 0.0000 0.0000
0.5041 0.0000 0.0000
0.5673 0.0000 0.0000
0.6307 0.0000 0.0000
0.6941 0.0000 0.0000
0.7578 0.0000 0.0000
0.8217 0.0000 0.0000
0.8860 0.0000 0.0000
0.9506 0.0000 0.0000
1.0077 0.0000 0.0000
1.0077 0.0000 0.0000
1.0077 0.0000 0.0000
1.0077 0.0000 0.0000
1.0077 0.0000 0.0000
1.0077 0.0000 0.0000
1.0077 0.0000 0.0000
1.0077 0.0000 0.0000
1.0077 0.0000 0.0000
1.0077 0.0000 0.0000
0.0000 0.2015 0.0000
0.0000 0.2017 0.0000
0.0000 0.2022 0.0000
0.0000 0.2030 0.0000
0.0000 0.2039 0.0000
0.0000 0.2045 0.0000
0.0000 0.2042 0.0000
0.0000 0.2022 0.0000
0.0000 0.1980 0.0000
0.0000 0.1904 0.0000
0.1509 0.1783 0.0000
0.2359 0.1595 0.0000
0.3075 0.1297 0.0000
0.3745 0.0720 0.0000
0.4394 0.0000 0.0000
0.5034 0.0000 0.0000
0.5671 0.0000 0.0000
0.6305 0.0000 0.0000
0.6941 0.0000 0.0000
0.7578 0.0000 0.0000
0.8217 0.0000 0.0000
0.8860 0.0000 0.0000
0.9506 0.0000 0.0000
1.0077 0.0000 0.0000
1.0077 0.0000 0.0000
1.0077 0.0000 0.0000
1.0077 0.0000 0.0000
1.0077 0.0000 0.0000
1.0077 0.0000 0.0000
1.0077 0.0000 0.0000
1.0077 0.0000 0.0000
1.0077 0.0000 0.0000
1.0077 0.0000 0.0000
0.0000 0.2676 0.0000
0.0000 0.2676 0.0000
0.0000 0.2676 0.0000
0.0000 0.2676 0.0000
0.0000 0.2673 0.0000
0.0000 0.2665 0.0000
0.0000 0.2648 0.0000
0.0000 0.2620 0.0000
0.0000 0.2575 0.0000
0.0000 0.2507 0.0000
0.0600 0.2409 0.0000
0.2041 0.2272 0.0000
0.2891 0.2083 0.0000
0.3625 0.1816 0.0000
0.4311 0.1413 0.0000
0.4974 0.0561 0.0000
0.5625 0.0000 0.0000
0.6270 0.0000 0.0000
0.6913 0.0000 0.0000
0.7555 0.0000 0.0000
0.8199 0.0000 0.0000
0.8845 0.0000 0.0000
0.9495 0.0000 0.0000
1.0077 0.0000 0.0000
1.0077 0.0000 0.0000
1.0077 0.0000 0.0000
1.0077 0.0000 0.0000
1.0077 0.0000 0.0000
1.0077 0.0000 0.0000
1.0077 0.0000 0.0000
1.0077 0.0000 0.0000
1.0077 0.0000 0.0000
1.0077 0.0000 0.0000
0.0000 0.3315 0.0000
0.0000 0.3314 0.0000
0.0000 0.3311 0.0000
0.0000 0.3306 0.0000
0.0000 0.3296 0.0000
0.0000 0.3280 0.0000
0.0000 0.3257 0.0000
0.0000 0.3224 0.0000
0.0000 0.3176 0.0000
0.0000 0.3112 0.0000
0.0000 0.3027 0.0000
0.1349 0.2915 0.0000
0.2541 0.2769 0.0000
0.3397 0.2580 0.0000
0.4149 0.2332 0.0000
0.4853 0.1995 0.0000
0.5532 0.1493 0.0000
0.6196 0.0000 0.0000
0.6853 0.0000 0.0000
0.7507 0.0000 0.0000
0.8159 0.0000 0.0000
0.8813 0.0000 0.0000
0.9470 0.0000 0.0000
1.0077 0.0000 0.0000
1.0077 0.0000 0.0000
1.0077 0.0000 0.0000
1.0077 0.0000 0.0000
1.0077 0.0000 0.0000
1.0077 0.0000 0.0000
1.0077 0.0000 0.0000
1.0077 0.0000 0.0000
1.0077 0.0000 0.0000
1.0077 0.0000 0.0000
0.0000 0.3935 0.0000
0.0000 0.3934 0.0000
0.0000 0.3929 0.0000
0.0000 0.3921 0.0000
0.0000 0.3908 0.0000
0.0000 0.3888 0.0000
0.0000 0.3861 0.0000
0.0000 0.3825 0.0000
0.0000 0.3778 0.0000
0.0000 0.3717 0.0000
0.0000 0.3639 0.0000
0.0000 0.3542 0.0000
0.1915 0.3420 0.0000
0.3028 0.3269 0.0000
0.3892 0.3082 0.0000
0.4661 0.2848 0.0000
0.5382 0.2548 0.0000
0.6078 0.2148 0.0000
0.6757 0.1553 0.0000
0.7428 0.0000 0.0000
0.8095 0.0000 0.0000
0.8761 0.0000 0.0000
0.9427 0.0000 0.0000
1.0077 0.0000 0.0000
1.0077 0.0000 0.0000
1.0077 0.0000 0.0000
1.0077 0.0000 0.0000
1.0077 0.0000 0.0000
1.0077 0.0000 0.0000
1.0077 0.0000 0.0000
1.0077 0.0000 0.0000
1.0077 0.0000 0.0000
1.0077 0.0000 0.0000
0.0000 0.4542 0.0000
0.0000 0.4540 0.0000
0.0000 0.4535 0.0000
0.0000 0.4526 0.0000
0.0000 0.4511 0.0000
0.0000 0.4489 0.0000
0.0000 0.4461 0.0000
0.0000 0.4424 0.0000
0.0000 0.4378 0.0000
0.0000 0.4320 0.0000
0.0000 0.4248 0.0000
0.0000 0.4161 0.0000
0.0000 0.4055 0.0000
0.2440 0.3928 0.0000
0.3512 0.3775 0.0000
0.4384 0.3591 0.0000
0.5169 0.3368 0.0000
0.5908 0.3094 0.0000
0.6620 0.2751 0.0000
0.7316 0.2297 0.0000
0.8003 0.1622 0.0000
0.8685 0.0000 0.0000
0.9366 0.0000 0.0000
1.0047 0.0000 0.0000
1.0077 0.0000 0.0000
1.0077 0.0000 0.0000
1.0077 0.0000 0.0000
1.0077 0.0000 0.0000
1.0077 0.0000 0.0000
1.0077 0.0000 0.0000
1.0077 0.0000 0.0000
1.0077 0.0000 0.0000
1.0077 0.0000 0.0000
0.0000 0.5142 0.0000
0.0000 0.5140 0.0000
0.0000 0.5135 0.0000
0.0000 0.5125 0.0000
0.0000 0.5109 0.0000
0.0000 0.5087 0.0000
0.0000 0.5059 0.0000
0.0000 0.5023 0.0000
0.0000 0.4978 0.0000
0.0000 0.4923 0.0000
0.0000 0.4857 0.0000
0.0000 0.4778 0.0000
0.0000 0.4684 0.0000
0.1283 0.4573 0.0000
0.2950 0.4443 0.0000
0.3998 0.4290 0.0000
0.4879 0.4110 0.0000
0.5680 0.3898 0.0000
0.6437 0.3645 0.0000
0.7166 0.3340 0.0000
0.7880 0.2962 0.0000
0.8584 0.2468 0.0000
0.9283 0.1741 0.0000
0.9981 0.0000 0.0000
1.0077 0.0000 0.0000
1.0077 0.0000 0.0000
1.0077 0.0000 0.0000
1.0077 0.0000 0.0000
1.0077 0.0000 0.0000
1.0077 0.0000 0.0000
1.0077 0.0000 0.0000
1.0077 0.0000 0.0000
1.0077 0.0000 0.0000
0.0000 0.5740 0.0000
0.0000 0.5738 0.0000
0.0000 0.5733 0.0000
0.0000 0.5722 0.0000
0.0000 0.5707 0.0000
0.0000 0.5686 0.0000
0.0000 0.5658 0.0000
0.0000 0.5623 0.0000
0.0000 0.5580 0.0000
0.0000 0.5529 0.0000
0.0000 0.5468 0.0000
0.0000 0.5396 0.0000
0.0000 0.5311 0.0000
0.0000 0.5213 0.0000
0.2020 0.5100 0.0000
0.3458 0.4969 0.0000
0.4492 0.4819 0.0000
0.5383 0.4645 0.0000
0.6200 0.4443 0.0000
0.6974 0.4209 0.0000
0.7722 0.3934 0.0000
0.8454 0.3606 0.0000
0.9177 0.3205 0.0000
0.9895 0.2690 0.0000
1.0077 0.1953 0.0000
1.0077 0.0000 0.0000
1.0077 0.0000 0.0000
1.0077 0.0000 0.0000
1.0077 0.0000 0.0000
1.0077 0.0000 0.0000
1.0077 0.0000 0.0000
1.0077 0.0000 0.0000
1.0077 0.0000 0.0000
0.0000 0.6340 0.0000
0.0000 0.6338 0.0000
0.0000 0.6333 0.0000
0.0000 0.6323 0.0000
0.0000 0.6308 0.0000
0.0000 0.6288 0.0000
0.0000 0.6261 0.0000
0.0000 0.6228 0.0000
0.0000 0.6188 0.0000
0.0000 0.6140 0.0000
0.0000 0.6084 0.0000
0.0000 0.6018 0.0000
0.0000 0.5942 0.0000
0.0000 0.5855 0.0000
0.0000 0.5755 0.0000
0.2645 0.5642 0.0000
0.3972 0.5512 0.0000
0.4999 0.5366 0.0000
0.5900 0.5199 0.0000
0.6733 0.5009 0.0000
0.7525 0.4792 0.0000
0.8293 0.4543 0.0000
0.9045 0.4255 0.0000
0.9788 0.3915 0.0000
1.0077 0.3506 0.0000
1.0077 0.2992 0.0000
1.0077 0.2290 0.0000
1.0077 0.0959 0.0000
1.0077 0.0000 0.0000
1.0077 0.0000 0.0000
1.0077 0.0000 0.0000
1.0077 0.0000 0.0000
1.0077 0.0000 0.0000
0.0000 0.6946 0.0000
0.0000 0.6945 0.0000
0.0000 0.6940 0.0000
0.0000 0.6930 0.0000
0.0000 0.6916 0.0000
0.0000 0.6897 0.0000
0.0000 0.6872 0.0000
0.0000 0.6841 0.0000
0.0000 0.6804 0.0000
0.0000 0.6759 0.0000
0.0000 0.6708 0.0000
0.0000 0.6648 0.0000
0.0000 0.6580 0.0000
0.0000 0.6502 0.0000
0.0000 0.6414 0.0000
0.0782 0.6314 0.0000
0.3238 0.6203 0.0000
0.4498 0.6077 0.0000
0.5522 0.5936 0.0000
0.6434 0.5778 0.0000
0.7284 0.5601 0.0000
0.8097 0.5401 0.0000
0.8885 0.5176 0.0000
0.9659 0.4921 0.0000
1.0077 0.4629 0.0000
1.0077 0.4290 0.0000
1.0077 0.3891 0.0000
1.0077 0.3405 0.0000
1.0077 0.2777 0.0000
1.0077 0.1836 0.0000
1.0077 0.0000 0.0000
1.0077 0.0000 0.0000
1.0077 0.0000 0.0000
0.0000 0.7562 0.0000
0.0000 0.7561 0.0000
0.0000 0.7556 0.0000
0.0000 0.7547 0.0000
0.0000 0.7534 0.0000
0.0000 0.7516 0.0000
0.0000 0.7493 0.0000
0.0000 0.7465 0.0000
0.0000 0.7431 0.0000
0.0000 0.7390 0.0000
0.0000 0.7343 0.0000
0.0000 0.7290 0.0000
0.0000 0.7228 0.0000
0.0000 0.7159 0.0000
0.0000 0.7081 0.0000
0.0000 0.6994 0.0000
0.2004 0.6897 0.0000
0.3824 0.6789 0.0000
0.5042 0.6669 0.0000
0.6066 0.6535 0.0000
0.6992 0.6388 0.0000
0.7861 0.6224 0.0000
0.8694 0.6043 0.0000
0.9505 0.5841 0.0000
1.0077 0.5617 0.0000
1.0077 0.5366 0.0000
1.0077 0.5083 0.0000
1.0077 0.4762 0.0000
1.0077 0.4392 0.0000
1.0077 0.3959 0.0000
1.0077 0.3433 0.0000
1.0077 0.2753 0.0000
1.0077 0.1706 0.0000
0.0000 0.8192 0.0000
0.0000 0.8191 0.0000
0.0000 0.8187 0.0000
0.0000 0.8178 0.0000
0.0000 0.8166 0.0000
0.0000 0.8150 0.0000
0.0000 0.8129 0.0000
0.0000 0.8103 0.0000
0.0000 0.8072 0.0000
0.0000 0.8036 0.0000
0.0000 0.7994 0.0000
0.0000 0.7946 0.0000
0.0000 0.7891 0.0000
0.0000 0.7830 0.0000
0.0000 0.7761 0.0000
0.0000 0.7685 0.0000
0.0000 0.7601 0.0000
0.2820 0.7508 0.0000
0.4420 0.7406 0.0000
0.5611 0.7293 0.0000
0.6639 0.7170 0.0000
0.7579 0.7034 0.0000
0.8468 0.6886 0.0000
0.9324 0.6725 0.0000
1.0077 0.6547 0.0000
1.0077 0.6353 0.0000
1.0077 0.6140 0.0000
1.0077 0.5906 0.0000
1.0077 0.5648 0.0000
1.0077 0.5363 0.0000
1.0077 0.5045 0.0000
1.0077 0.4688 0.0000
1.0077 0.4282 0.0000
0.0000 0.8839 0.0000
0.0000 0.8838 0.0000
0.0000 0.8834 0.0000
0.0000 0.8827 0.0000
0.0000 0.8816 0.0000
0.0000 0.8801 0.0000
0.0000 0.8782 0.0000
0.0000 0.8759 0.0000
0.0000 0.8732 0.0000
0.0000 0.8699 0.0000
0.0000 0.8662 0.0000
0.0000 0.8619 0.0000
0.0000 0.8572 0.0000
0.0000 0.8518 0.0000
0.0000 0.8459 0.0000
0.0000 0.8393 0.0000
0.0000 0.8320 0.0000
0.0000 0.8241 0.0000
0.3558 0.8155 0.0000
0.5035 0.8060 0.0000
0.6209 0.7958 0.0000
0.7245 0.7847 0.0000
0.8203 0.7726 0.0000
0.9113 0.7596 0.0000
0.9994 0.7456 0.0000
1.0077 0.7305 0.0000
1.0077 0.7142 0.0000
1.0077 0.6968 0.0000
1.0077 0.6780 0.0000
1.0077 0.6580 0.0000
1.0077 0.6365 0.0000
1.0077 0.6136 0.0000
1.0077 0.5892 0.0000
0.0000 0.9507 0.0000
0.0000 0.9506 0.0000
0.0000 0.9503 0.0000
0.0000 0.9496 0.0000
0.0000 0.9487 0.0000
0.0000 0.9474 0.0000
0.0000 0.9457 0.0000
0.0000 0.9437 0.0000
0.0000 0.9413 0.0000
0.0000 0.9384 0.0000
0.0000 0.9352 0.0000
0.0000 0.9315 0.0000
0.0000 0.9274 0.0000
0.0000 0.9228 0.0000
0.0000 0.9177 0.0000
0.0000 0.9122 0.0000
0.0000 0.9061 0.0000
0.0000 0.8994 0.0000
0.2106 0.8923 0.0000
0.4279 0.8845 0.0000
0.5681 0.8761 0.0000
0.6846 0.8672 0.0000
0.7892 0.8576 0.0000
0.8870 0.8473 0.0000
0.9805 0.8364 0.0000
1.0077 0.8249 0.0000
1.0077 0.8127 0.0000
1.0077 0.7998 0.0000
1.0077 0.7864 0.0000
1.0077 0.7724 0.0000
1.0077 0.7580 0.0000
1.0077 0.7431 0.0000
1.0077 0.7282 0.0000
0.0000 1.0200 0.0000
0.0000 1.0199 0.0000
0.0000 1.0196 0.0000
0.0000 1.0191 0.0000
0.0000 1.0183 0.0000
0.0000 1.0172 0.0000
0.0000 1.0157 0.0000
0.0000 1.0140 0.0000
0.0000 1.0120 0.0000
0.0000 1.0096 0.0000
0.0000 1.0068 0.0000
0.0000 1.0038 0.0000
0.0000 1.0003 0.0000
0.0000 0.9965 0.0000
0.0000 0.9923 0.0000
0.0000 0.9877 0.0000
0.0000 0.9827 0.0000
0.0000 0.9774 0.0000
0.0000 0.9716 0.0000
0.3180 0.9654 0.0000
0.5013 0.9589 0.0000
0.6366 0.9519 0.0000
0.7529 0.9445 0.0000
0.8590 0.9368 0.0000
0.9591 0.9287 0.0000
1.0077 0.9203 0.0000
1.0077 0.9117 0.0000
1.0077 0.9028 0.0000
1.0077 0.8938 0.0000
1.0077 0.8848 0.0000
1.0077 0.8759 0.0000
1.0077 0.8674 0.0000
1.0077 0.8595 0.0000
0.0000 1.0924 0.0000
0.0000 1.0923 0.0000
0.0000 1.0921 0.0000
0.0000 1.0916 0.0000
0.0000 1.0909 0.0000
0.0000 1.0900 0.0000
0.0000 1.0889 0.0000
0.0000 1.0875 0.0000
0.0000 1.0858 0.0000
0.0000 1.0838 0.0000
0.0000 1.0816 0.0000
0.0000 1.0792 0.0000
0.0000 1.0764 0.0000
0.0000 1.0734 0.0000
0.0000 1.0701 0.0000
0.0000 1.0665 0.0000
0.0000 1.0626 0.0000
0.0000 1.0585 0.0000
0.0000 1.0542 0.0000
0.0000 1.0496 0.0000
0.4119 1.0448 0.0000
0.5778 1.0397 0.0000
0.7101 1.0345 0.0000
0.8269 1.0292 0.0000
0.9350 1.0238 0.0000
1.0077 1.0184 0.0000
1.0077 1.0130 0.0000
1.0077 1.0077 0.0000
1.0077 1.0028 0.0000
1.0077 0.9983 0.0000
1.0077 0.9943 0.0000
1.0077 0.9913 0.0000
1.0077 0.9894 0.0000
0.0000 1.1518 0.0000
0.0000 1.1518 0.0000
0.0000 1.1518 0.0000
0.0000 1.1518 0.0000
0.0000 1.1518 0.0000
0.0000 1.1518 0.0000
0.0000 1.1518 0.0000
0.0000 1.1518 0.0000
0.0000 1.1518 0.0000
0.0000 1.1518 0.0000
0.0000 1.1518 0.0000
0.0000 1.1518 0.0000
0.0000 1.1518 0.0000
0.0000 1.1518 0.0000
0.0000 1.1517 0.0000
0.0000 1.1492 0.0000
0.0000 1.1465 0.0000
0.0000 1.1437 0.0000
0.0000 1.1408 0.0000
0.0000 1.1378 0.0000
0.2730 1.1347 0.0000
0.5037 1.1317 0.0000
0.6594 1.1286 0.0000
0.7901 1.1257 0.0000
0.9080 1.1229 0.0000
1.0077 1.1204 0.0000
1.0077 1.1182 0.0000
1.0077 1.1165 0.0000
1.0077 1.1154 0.0000
1.0077 1.1152 0.0000
1.0077 1.1160 0.0000
1.0077 1.1182 0.0000
1.0077 1.1220 0.0000
0.0000 1.1518 0.0000
0.0000 1.1518 0.0000
0.0000 1.1518 0.0000
0.0000 1.1518 0.0000
0.0000 1.1518 0.0000
0.0000 1.1518 0.0000
0.0000 1.1518 0.0000
0.0000 1.1518 0.0000
0.0000 1.1518 0.0000
0.0000 1.1518 0.0000
0.0000 1.1518 0.0000
0.0000 1.1518 0.0000
0.0000 1.1518 0.0000
0.0000 1.1518 0.0000
0.0000 1.1518 0.0000
0.0000 1.1518 0.0000
0.0000 1.1518 0.0000
0.0000 1.1518 0.0000
0.0000 1.1518 0.0000
0.0000 1.1518 0.0000
0.0000 1.1518 0.0000
0.4038 1.1518 0.0000
0.5985 1.1518 0.0000
0.7480 1.1518 0.0000
0.8782 1.1518 0.0000
0.9982 1.1518 0.0000
1.0077 1.1518 0.0000
1.0077 1.1518 0.0000
1.0077 1.1518 0.0000
1.0077 1.1518 0.0000
1.0077 1.1518 0.0000
1.0077 1.1518 0.0000
1.0077 1.1518 0.0000
0.0000 1.1518 0.0000
0.0000 1.1518 0.0000
0.0000 1.1518 0.0000
0.0000 1.1518 0.0000
0.0000 1.1518 0.0000
0.0000 1.1518 0.0000
0.0000 1.1518 0.0000
0.0000 1.1518 0.0000
0.0000 1.1518 0.0000
0.0000 1.1518 0.0000
0.0000 1.1518 0.0000
0.0000 1.1518 0.0000
0.0000 1.1518 0.0000
0.0000 1.1518 0.0000
0.0000 1.1518 0.0000
0.0000 1.1518 0.0000
0.0000 1.1518 0.0000
0.0000 1.1518 0.0000
0.0000 1.1518 0.0000
0.0000 1.1518 0.0000
0.0000 1.1518 0.0000
0.2405 1.1518 0.0000
0.5230 1.1518 0.0000
0.6997 1.1518 0.0000
0.8457 1.1518 0.0000
0.9768 1.1518 0.0000
1.0077 1.1518 0.0000
1.0077 1.1518 0.0000
1.0077 1.1518 0.0000
1.0077 1.1518 0.0000
1.0077 1.1518 0.0000
1.0077 1.1518 0.0000
1.0077 1.1518 0.0000
0.0000 1.1518 0.0000
0.0000 1.1518 0.0000
0.0000 1.1518 0.0000
0.0000 1.1518 0.0000
0.0000 1.1518 0.0000
0.0000 1.1518 0.0000
0.0000 1.1518 0.0000
0.0000 1.1518 0.0000
0.0000 1.1518 0.0000
