images/sourceTarget.cube
LUT_3D_SIZE 5
0.0000 0.0000 0.0000
0.2232 0.0000 0.0059
0.5107 0.0000 0.0413
0.8186 0.0000 0.0931
0.9749 0.0000 0.1675
0.0000 0.1982 0.0000
0.1622 0.1721 0.0000
0.4957 0.0000 0.0000
0.8150 0.0000 0.0949
0.9749 0.0000 0.1780
0.0000 0.4459 0.0000
0.0000 0.4367 0.0000
0.4107 0.4032 0.0000
0.7957 0.3336 0.1178
0.9749 0.1791 0.2255
0.0000 0.7491 0.0000
0.0000 0.7468 0.0000
0.0000 0.7396 0.1156
0.7466 0.7301 0.2249
0.9749 0.7267 0.3528
0.0000 1.0193 0.2915
0.0000 1.0193 0.3089
0.0000 1.0193 0.3685
0.6772 1.0193 0.4735
0.9749 1.0193 0.6335
0.0000 0.0000 0.1381
0.2307 0.0000 0.1481
0.5236 0.0000 0.1666
0.8360 0.0000 0.2020
0.9749 0.0000 0.2637
0.0000 0.1960 0.1347
0.1833 0.1668 0.1429
0.5109 0.0000 0.1661
0.8330 0.0000 0.2066
0.9749 0.0000 0.2736
0.0000 0.4458 0.1291
0.0000 0.4364 0.1402
0.4345 0.4021 0.1749
0.8160 0.3307 0.2319
0.9749 0.1701 0.3175
0.0000 0.7538 0.1847
0.0000 0.7516 0.1986
0.0080 0.7448 0.2443
0.7728 0.7363 0.3214
0.9749 0.7350 0.4360
0.0000 1.0193 0.3838
0.0000 1.0193 0.3989
0.0000 1.0193 0.4526
0.7182 1.0193 0.5519
0.9749 1.0193 0.7093
0.0000 0.0488 0.3164
0.2254 0.0000 0.3266
0.5377 0.0000 0.3485
0.8659 0.0000 0.3872
0.9749 0.0000 0.4532
0.0000 0.2048 0.3206
0.1844 0.1719 0.3286
0.5301 0.0000 0.3525
0.8661 0.0000 0.3948
0.9749 0.0000 0.4651
0.0000 0.4532 0.3411
0.0000 0.4435 0.3493
0.4746 0.4079 0.3778
0.8599 0.3343 0.4302
0.9749 0.1733 0.5151
0.0000 0.7713 0.4115
0.0000 0.7695 0.4217
0.2730 0.7641 0.4584
0.8381 0.7590 0.5278
0.9749 0.7650 0.6404
0.0000 1.0193 0.5985
0.0000 1.0193 0.6125
0.0000 1.0193 0.6635
0.8297 1.0193 0.7621
0.9749 1.0193 0.9252
0.0000 0.1130 0.5004
0.1890 0.0000 0.5114
0.5468 0.0000 0.5401
0.8978 0.0000 0.5886
0.9749 0.0000 0.6681
0.0000 0.2316 0.5099
0.1390 0.1992 0.5193
0.5428 0.0000 0.5485
0.9016 0.0000 0.5999
0.9749 0.0000 0.6835
0.0000 0.4756 0.5467
0.0000 0.4659 0.5559
0.5068 0.4309 0.5882
0.9092 0.3612 0.6483
0.9749 0.2310 0.7463
0.0000 0.8061 0.6413
0.0000 0.8050 0.6523
0.3871 0.8026 0.6922
0.9178 0.8040 0.7692
0.9749 0.8241 0.8962
0.0000 1.0193 0.8595
0.0000 1.0193 0.8747
0.0000 1.0193 0.9307
0.9749 1.0193 1.0312
0.9749 1.0193 1.0312
0.0000 0.1878 0.6944
0.0000 0.1293 0.7066
0.5485 0.0000 0.7427
0.9321 0.0000 0.8042
0.9749 0.0000 0.9026
0.0000 0.2817 0.7089
0.0000 0.2541 0.7200
0.5474 0.1090 0.7560
0.9394 0.0000 0.8199
0.9749 0.0000 0.9226
0.0000 0.5184 0.7624
0.0000 0.5097 0.7733
0.5288 0.4788 0.8119
0.9617 0.4221 0.8844
0.9749 0.3416 1.0028
0.0000 0.8640 0.8863
0.0000 0.8643 0.8992
0.4735 0.8669 0.9462
0.9749 0.8797 1.0312
0.9749 0.9224 1.0312
0.0000 1.0193 1.0312
0.0000 1.0193 1.0312
0.4703 1.0193 1.0312
0.9749 1.0193 1.0312
0.9749 1.0193 1.0312
