images/sourceTarget.cube
LUT_3D_SIZE 9
0.0000 0.0000 0.0000
0.0813 0.0000 0.0000
0.2232 0.0000 0.0059
0.3653 0.0000 0.0209
0.5107 0.0000 0.0413
0.6613 0.0000 0.0651
0.8186 0.0000 0.0931
0.9749 0.0000 0.1268
0.9749 0.0000 0.1675
0.0000 0.0834 0.0000
0.0518 0.0726 0.0000
0.2162 0.0000 0.0000
0.3609 0.0000 0.0000
0.5079 0.0000 0.0363
0.6596 0.0000 0.0637
0.8179 0.0000 0.0935
0.9749 0.0000 0.1282
0.9749 0.0000 0.1697
0.0000 0.1982 0.0000
0.0000 0.1929 0.0000
0.1622 0.1721 0.0000
0.3388 0.1217 0.0000
0.4957 0.0000 0.0000
0.6528 0.0000 0.0583
0.8150 0.0000 0.0949
0.9749 0.0000 0.1336
0.9749 0.0000 0.1780
0.0000 0.3174 0.0000
0.0000 0.3142 0.0000
0.0000 0.3025 0.0000
0.2795 0.2800 0.0000
0.4668 0.2417 0.0000
0.6376 0.1732 0.0502
0.8083 0.0000 0.1004
0.9749 0.0000 0.1457
0.9749 0.0000 0.1951
0.0000 0.4459 0.0000
0.0000 0.4439 0.0000
0.0000 0.4367 0.0000
0.0983 0.4235 0.0000
0.4107 0.4032 0.0000
0.6094 0.3743 0.0570
0.7957 0.3336 0.1178
0.9749 0.2750 0.1699
0.9749 0.1791 0.2255
0.0000 0.5880 0.0000
0.0000 0.5868 0.0000
0.0000 0.5826 0.0000
0.0000 0.5751 0.0000
0.3023 0.5642 0.0000
0.5630 0.5496 0.0984
0.7755 0.5316 0.1571
0.9749 0.5103 0.2137
0.9749 0.4867 0.2754
0.0000 0.7491 0.0000
0.0000 0.7485 0.0000
0.0000 0.7468 0.0000
0.0000 0.7437 0.0446
0.0000 0.7396 0.1156
0.4900 0.7348 0.1700
0.7466 0.7301 0.2249
0.9749 0.7268 0.2847
0.9749 0.7267 0.3528
0.0000 0.9363 0.1354
0.0000 0.9364 0.1408
0.0000 0.9369 0.1588
0.0000 0.9379 0.1880
0.0000 0.9399 0.2262
0.3723 0.9438 0.2724
0.7108 0.9505 0.3270
0.9749 0.9618 0.3912
0.9749 0.9801 0.4674
0.0000 1.0193 0.2915
0.0000 1.0193 0.2953
0.0000 1.0193 0.3089
0.0000 1.0193 0.3332
0.0000 1.0193 0.3685
0.1068 1.0193 0.4150
0.6772 1.0193 0.4735
0.9749 1.0193 0.5455
0.9749 1.0193 0.6335
0.0000 0.0000 0.0495
0.0861 0.0000 0.0549
0.2274 0.0000 0.0620
0.3698 0.0000 0.0716
0.5153 0.0000 0.0848
0.6661 0.0000 0.1026
0.8237 0.0000 0.1259
0.9749 0.0000 0.1558
0.9749 0.0000 0.1935
0.0000 0.0834 0.0475
0.0616 0.0709 0.0509
0.2211 0.0000 0.0586
0.3656 0.0000 0.0692
0.5126 0.0000 0.0835
0.6644 0.0000 0.1023
0.8230 0.0000 0.1265
0.9749 0.0000 0.1572
0.9749 0.0000 0.1957
0.0000 0.1968 0.0000
0.0000 0.1912 0.0194
0.1711 0.1697 0.0391
0.3442 0.1168 0.0579
0.5005 0.0000 0.0780
0.6577 0.0000 0.1012
0.8200 0.0000 0.1289
0.9749 0.0000 0.1625
0.9749 0.0000 0.2036
0.0000 0.3165 0.0000
0.0000 0.3133 0.0000
0.0000 0.3014 0.0000
0.2869 0.2786 0.0239
0.4722 0.2397 0.0678
0.6425 0.1693 0.1009
0.8133 0.0000 0.1353
0.9749 0.0000 0.1742
0.9749 0.0000 0.2200
0.0000 0.4456 0.0000
0.0000 0.4436 0.0000
0.0000 0.4364 0.0000
0.1228 0.4231 0.0000
0.4172 0.4027 0.0635
0.6148 0.3736 0.1092
0.8009 0.3327 0.1516
0.9749 0.2736 0.1972
0.9749 0.1765 0.2492
0.0000 0.5884 0.0000
0.0000 0.5872 0.0000
0.0000 0.5830 0.0000
0.0000 0.5755 0.0000
0.3121 0.5646 0.0909
0.5692 0.5500 0.1393
0.7810 0.5320 0.1869
0.9749 0.5108 0.2386
0.9749 0.4874 0.2975
0.0000 0.7501 0.0000
0.0000 0.7496 0.0369
0.0000 0.7478 0.0746
0.0000 0.7448 0.1137
0.0000 0.7407 0.1550
0.4978 0.7360 0.1998
0.7529 0.7315 0.2498
0.9749 0.7283 0.3067
0.9749 0.7285 0.3729
0.0000 0.9380 0.1731
0.0000 0.9381 0.1774
0.0000 0.9386 0.1922
0.0000 0.9397 0.2174
0.0000 0.9418 0.2520
0.3845 0.9458 0.2955
0.7183 0.9527 0.3480
0.9749 0.9643 0.4107
0.9749 0.9830 0.4859
0.0000 1.0193 0.3144
0.0000 1.0193 0.3180
0.0000 1.0193 0.3310
0.0000 1.0193 0.3544
0.0000 1.0193 0.3887
0.1587 1.0193 0.4342
0.6867 1.0193 0.4919
0.9749 1.0193 0.5633
0.9749 1.0193 0.6509
0.0000 0.0000 0.1381
0.0883 0.0000 0.1421
0.2307 0.0000 0.1481
0.3757 0.0000 0.1557
0.5236 0.0000 0.1666
0.6764 0.0000 0.1816
0.8360 0.0000 0.2020
0.9749 0.0000 0.2288
0.9749 0.0000 0.2637
0.0000 0.0861 0.1380
0.0581 0.0710 0.1406
0.2254 0.0000 0.1466
0.3723 0.0000 0.1549
0.5213 0.0000 0.1664
0.6751 0.0000 0.1820
0.8354 0.0000 0.2029
0.9749 0.0000 0.2303
0.9749 0.0000 0.2658
0.0000 0.1960 0.1347
0.0000 0.1901 0.1366
0.1833 0.1668 0.1429
0.3540 0.1081 0.1527
0.5109 0.0000 0.1661
0.6692 0.0000 0.1837
0.8330 0.0000 0.2066
0.9749 0.0000 0.2360
0.9749 0.0000 0.2736
0.0000 0.3156 0.1300
0.0000 0.3122 0.1321
0.0000 0.2999 0.1392
0.3028 0.2761 0.1511
0.4852 0.2354 0.1674
0.6555 0.1602 0.1884
0.8272 0.0000 0.2149
0.9749 0.0000 0.2481
0.9749 0.0000 0.2895
0.0000 0.4458 0.1291
0.0000 0.4437 0.1316
0.0000 0.4364 0.1402
0.1690 0.4229 0.1548
0.4345 0.4021 0.1749
0.6299 0.3725 0.2004
0.8160 0.3307 0.2319
0.9749 0.2704 0.2704
0.9749 0.1701 0.3175
0.0000 0.5901 0.1428
0.0000 0.5890 0.1458
0.0000 0.5848 0.1558
0.0000 0.5773 0.1731
0.3395 0.5663 0.1971
0.5876 0.5519 0.2274
0.7981 0.5340 0.2644
0.9749 0.5130 0.3092
0.9749 0.4902 0.3635
0.0000 0.7538 0.1847
0.0000 0.7533 0.1878
0.0000 0.7516 0.1986
0.0000 0.7487 0.2175
0.0080 0.7448 0.2443
0.5220 0.7404 0.2788
0.7728 0.7363 0.3214
0.9749 0.7337 0.3732
0.9749 0.7350 0.4360
0.0000 0.9440 0.2629
0.0000 0.9441 0.2660
0.0000 0.9447 0.2771
0.0000 0.9460 0.2970
0.0000 0.9484 0.3261
0.4221 0.9528 0.3645
0.7427 0.9604 0.4130
0.9749 0.9729 0.4728
0.9749 0.9929 0.5460
0.0000 1.0193 0.3838
0.0000 1.0193 0.3871
0.0000 1.0193 0.3989
0.0000 1.0193 0.4204
0.0000 1.0193 0.4526
0.2605 1.0193 0.4960
0.7182 1.0193 0.5519
0.9749 1.0193 0.6222
0.9749 1.0193 0.7093
0.0000 0.0000 0.2269
0.0739 0.0000 0.2302
0.2306 0.0000 0.2368
0.3797 0.0000 0.2449
0.5312 0.0000 0.2560
0.6876 0.0000 0.2713
0.8506 0.0000 0.2918
0.9749 0.0000 0.3188
0.9749 0.0000 0.3539
0.0000 0.0925 0.2275
0.0000 0.0756 0.2299
0.2253 0.0000 0.2361
0.3770 0.0000 0.2447
0.5295 0.0000 0.2563
0.6866 0.0000 0.2720
0.8504 0.0000 0.2930
0.9749 0.0000 0.3205
0.9749 0.0000 0.3561
0.0000 0.1985 0.2278
0.0000 0.1920 0.2297
0.1881 0.1670 0.2355
0.3616 0.1032 0.2450
0.5212 0.0000 0.2580
0.6823 0.0000 0.2752
0.8491 0.0000 0.2978
0.9749 0.0000 0.3271
0.9749 0.0000 0.3645
0.0000 0.3170 0.2304
0.0000 0.3134 0.2321
0.0000 0.3006 0.2381
0.3174 0.2757 0.2485
0.4993 0.2329 0.2633
0.6712 0.1524 0.2829
0.8452 0.0000 0.3082
0.9749 0.0000 0.3405
0.9749 0.0000 0.3813
0.0000 0.4480 0.2389
0.0000 0.4459 0.2408
0.0000 0.4384 0.2473
0.2078 0.4246 0.2590
0.4550 0.4034 0.2760
0.6494 0.3730 0.2987
0.8368 0.3305 0.3277
0.9749 0.2690 0.3643
0.9749 0.1666 0.4102
0.0000 0.5943 0.2591
0.0000 0.5931 0.2612
0.0000 0.5890 0.2686
0.0000 0.5815 0.2820
0.3730 0.5706 0.3016
0.6127 0.5563 0.3280
0.8226 0.5386 0.3618
0.9749 0.5183 0.4041
0.9749 0.4968 0.4568
0.0000 0.7607 0.2993
0.0000 0.7602 0.3017
0.0000 0.7586 0.3101
0.0000 0.7560 0.3255
0.1923 0.7524 0.3482
0.5564 0.7486 0.3789
0.8026 0.7452 0.4183
0.9749 0.7439 0.4678
0.9749 0.7469 0.5292
0.0000 0.9546 0.3699
0.0000 0.9547 0.3726
0.0000 0.9555 0.3822
0.0000 0.9571 0.3998
0.0000 0.9602 0.4261
0.4750 0.9654 0.4619
0.7804 0.9742 0.5081
0.9749 0.9884 0.5665
0.9749 1.0107 0.6392
0.0000 1.0193 0.4830
0.0000 1.0193 0.4860
0.0000 1.0193 0.4971
0.0000 1.0193 0.5175
0.0000 1.0193 0.5482
0.3655 1.0193 0.5905
0.7679 1.0193 0.6456
0.9749 1.0193 0.7157
0.9749 1.0193 0.8038
0.0000 0.0488 0.3164
0.0000 0.0000 0.3194
0.2254 0.0000 0.3266
0.3814 0.0000 0.3360
0.5377 0.0000 0.3485
0.6984 0.0000 0.3651
0.8659 0.0000 0.3872
0.9749 0.0000 0.4160
0.9749 0.0000 0.4532
0.0000 0.1044 0.3176
0.0000 0.0875 0.3200
0.2196 0.0000 0.3267
0.3791 0.0000 0.3363
0.5365 0.0000 0.3492
0.6979 0.0000 0.3663
0.8660 0.0000 0.3888
0.9749 0.0000 0.4181
0.9749 0.0000 0.4557
0.0000 0.2048 0.3206
0.0000 0.1980 0.3224
0.1844 0.1719 0.3286
0.3660 0.1058 0.3386
0.5301 0.0000 0.3525
0.6952 0.0000 0.3709
0.8661 0.0000 0.3948
0.9749 0.0000 0.4257
0.9749 0.0000 0.4651
0.0000 0.3217 0.3272
0.0000 0.3180 0.3290
0.0000 0.3047 0.3350
0.3279 0.2789 0.3456
0.5121 0.2347 0.3609
0.6871 0.1509 0.3812
0.8647 0.0000 0.4075
0.9749 0.0000 0.4411
0.9749 0.0000 0.4837
0.0000 0.4532 0.3411
0.0000 0.4511 0.3429
0.0000 0.4435 0.3493
0.2361 0.4294 0.3608
0.4746 0.4079 0.3778
0.6699 0.3772 0.4006
0.8599 0.3343 0.4302
0.9749 0.2729 0.4677
0.9749 0.1733 0.5151
0.0000 0.6015 0.3669
0.0000 0.6004 0.3689
0.0000 0.5963 0.3760
0.0000 0.5889 0.3888
0.4057 0.5782 0.4080
0.6401 0.5643 0.4340
0.8508 0.5473 0.4678
0.9749 0.5281 0.5107
0.9749 0.5087 0.5646
0.0000 0.7713 0.4115
0.0000 0.7709 0.4137
0.0000 0.7695 0.4217
0.0000 0.7671 0.4363
0.2730 0.7641 0.4584
0.5948 0.7611 0.4885
0.8381 0.7590 0.5278
0.9749 0.7594 0.5778
0.9749 0.7650 0.6404
0.0000 0.9700 0.4843
0.0000 0.9703 0.4869
0.0000 0.9713 0.4961
0.0000 0.9734 0.5131
0.0000 0.9773 0.5389
0.5334 0.9838 0.5744
0.8265 0.9943 0.6208
0.9749 1.0109 0.6800
0.9749 1.0193 0.7545
0.0000 1.0193 0.5985
0.0000 1.0193 0.6016
0.0000 1.0193 0.6125
0.0000 1.0193 0.6327
0.0000 1.0193 0.6635
0.4655 1.0193 0.7060
0.8297 1.0193 0.7621
0.9749 1.0193 0.8341
0.9749 1.0193 0.9252
0.0000 0.0804 0.4074
0.0000 0.0478 0.4102
0.2129 0.0000 0.4180
0.3805 0.0000 0.4289
0.5429 0.0000 0.4431
0.7089 0.0000 0.4618
0.8816 0.0000 0.4863
0.9749 0.0000 0.5178
0.9749 0.0000 0.5583
0.0000 0.1224 0.4092
0.0000 0.1068 0.4116
0.2062 0.0000 0.4189
0.3784 0.0000 0.4298
0.5421 0.0000 0.4443
0.7089 0.0000 0.4634
0.8822 0.0000 0.4882
0.9749 0.0000 0.5202
0.9749 0.0000 0.5611
0.0000 0.2156 0.4144
0.0000 0.2087 0.4164
0.1700 0.1823 0.4230
0.3668 0.1182 0.4340
0.5374 0.0000 0.4493
0.7077 0.0000 0.4695
0.8836 0.0000 0.4956
0.9749 0.0000 0.5291
0.9749 0.0000 0.5717
0.0000 0.3303 0.4246
0.0000 0.3266 0.4264
0.0000 0.3131 0.4329
0.3335 0.2869 0.4442
0.5229 0.2423 0.4606
0.7026 0.1592 0.4825
0.8848 0.0000 0.5108
0.9749 0.0000 0.5470
0.9749 0.0000 0.5927
0.0000 0.4622 0.4431
0.0000 0.4601 0.4450
0.0000 0.4524 0.4517
0.2551 0.4383 0.4638
0.4920 0.4168 0.4816
0.6901 0.3863 0.5058
0.8842 0.3441 0.5372
0.9749 0.2850 0.5771
0.9749 0.1947 0.6275
0.0000 0.6126 0.4745
0.0000 0.6115 0.4765
0.0000 0.6075 0.4838
0.0000 0.6004 0.4970
0.4354 0.5901 0.5169
0.6678 0.5768 0.5441
0.8810 0.5610 0.5796
0.9749 0.5438 0.6248
0.9749 0.5276 0.6817
0.0000 0.7862 0.5250
0.0000 0.7859 0.5272
0.0000 0.7847 0.5354
0.0000 0.7828 0.5504
0.3352 0.7806 0.5731
0.6344 0.7787 0.6043
0.8768 0.7783 0.6452
0.9749 0.7812 0.6975
0.9749 0.7904 0.7635
0.0000 0.9907 0.6038
0.0000 0.9911 0.6065
0.0000 0.9925 0.6159
0.0000 0.9953 0.6333
0.0619 1.0003 0.6598
0.5931 1.0085 0.6965
0.8778 1.0193 0.7449
0.9749 1.0193 0.8069
0.9749 1.0193 0.8854
0.0000 1.0193 0.7247
0.0000 1.0193 0.7278
0.0000 1.0193 0.7390
0.0000 1.0193 0.7599
0.0000 1.0193 0.7918
0.5604 1.0193 0.8361
0.8994 1.0193 0.8948
0.9749 1.0193 0.9706
0.9749 1.0193 1.0312
0.0000 0.1130 0.5004
0.0000 0.0927 0.5031
0.1890 0.0000 0.5114
0.3760 0.0000 0.5238
0.5468 0.0000 0.5401
0.7191 0.0000 0.5613
0.8978 0.0000 0.5886
0.9749 0.0000 0.6236
0.9749 0.0000 0.6681
0.0000 0.1462 0.5026
0.0000 0.1328 0.5052
0.1808 0.0654 0.5130
0.3740 0.0000 0.5253
0.5463 0.0000 0.5418
0.7194 0.0000 0.5633
0.8988 0.0000 0.5910
0.9749 0.0000 0.6264
0.9749 0.0000 0.6714
0.0000 0.2316 0.5099
0.0000 0.2248 0.5121
0.1390 0.1992 0.5193
0.3635 0.1403 0.5315
0.5428 0.0000 0.5485
0.7196 0.0000 0.5709
0.9016 0.0000 0.5999
0.9749 0.0000 0.6367
0.9749 0.0000 0.6835
0.0000 0.3436 0.5236
0.0000 0.3399 0.5256
0.0000 0.3264 0.5325
0.3340 0.3004 0.5449
0.5317 0.2568 0.5628
0.7174 0.1790 0.5868
0.9055 0.0000 0.6178
0.9749 0.0000 0.6573
0.9749 0.0000 0.7072
0.0000 0.4756 0.5467
0.0000 0.4735 0.5487
0.0000 0.4659 0.5559
0.2659 0.4520 0.5689
0.5068 0.4309 0.5882
0.7098 0.4014 0.6143
0.9092 0.3612 0.6483
0.9749 0.3070 0.6916
0.9749 0.2310 0.7463
0.0000 0.6282 0.5839
0.0000 0.6272 0.5860
0.0000 0.6234 0.5937
0.0000 0.6167 0.6078
0.4617 0.6071 0.6291
0.6951 0.5949 0.6582
0.9124 0.5809 0.6963
0.9749 0.5665 0.7450
0.9749 0.5549 0.8064
0.0000 0.8061 0.6413
0.0000 0.8059 0.6437
0.0000 0.8050 0.6523
0.0000 0.8038 0.6682
0.3871 0.8026 0.6922
0.6740 0.8022 0.7255
0.9178 0.8040 0.7692
0.9749 0.8102 0.8252
0.9749 0.8241 0.8962
0.0000 1.0173 0.7284
0.0000 1.0178 0.7311
0.0000 1.0193 0.7411
0.0000 1.0193 0.7595
0.2639 1.0193 0.7876
0.6526 1.0193 0.8266
0.9328 1.0193 0.8781
0.9749 1.0193 0.9445
0.9749 1.0193 1.0290
0.0000 1.0193 0.8595
0.0000 1.0193 0.8628
0.0000 1.0193 0.8747
0.0000 1.0193 0.8968
0.0000 1.0193 0.9307
0.6520 1.0193 0.9779
0.9749 1.0193 1.0312
0.9749 1.0193 1.0312
0.9749 1.0193 1.0312
0.0000 0.1485 0.5959
0.0000 0.1336 0.5986
0.1434 0.0548 0.6074
0.3669 0.0000 0.6212
0.5488 0.0000 0.6398
0.7289 0.0000 0.6637
0.9146 0.0000 0.6944
0.9749 0.0000 0.7334
0.9749 0.0000 0.7827
0.0000 0.1758 0.5986
0.0000 0.1644 0.6012
0.1318 0.1166 0.6097
0.3649 0.0000 0.6234
0.5485 0.0000 0.6420
0.7295 0.0000 0.6662
0.9159 0.0000 0.6972
0.9749 0.0000 0.7366
0.9749 0.0000 0.7865
0.0000 0.2535 0.6079
0.0000 0.2471 0.6102
0.0569 0.2231 0.6181
0.3552 0.1711 0.6316
0.5463 0.0000 0.6506
0.7311 0.0000 0.6756
0.9202 0.0000 0.7078
0.9749 0.0000 0.7487
0.9749 0.0000 0.8002
0.0000 0.3622 0.6250
0.0000 0.3586 0.6272
0.0000 0.3454 0.6348
0.3286 0.3204 0.6483
0.5381 0.2792 0.6681
0.7316 0.2097 0.6946
0.9268 0.0000 0.7288
0.9749 0.0000 0.7723
0.9749 0.0000 0.8271
0.0000 0.4940 0.6529
0.0000 0.4920 0.6551
0.0000 0.4847 0.6628
0.2687 0.4714 0.6770
0.5191 0.4513 0.6980
0.7289 0.4236 0.7266
0.9349 0.3870 0.7639
0.9749 0.3398 0.8113
0.9749 0.2805 0.8711
0.0000 0.6490 0.6962
0.0000 0.6481 0.6985
0.0000 0.6446 0.7068
0.0998 0.6386 0.7221
0.4849 0.6300 0.7451
0.7221 0.6196 0.7768
0.9451 0.6081 0.8182
0.9749 0.5977 0.8713
0.9749 0.5919 0.9383
0.0000 0.8317 0.7614
0.0000 0.8316 0.7640
0.0000 0.8312 0.7732
0.0000 0.8308 0.7904
0.4324 0.8310 0.8163
0.7136 0.8327 0.8523
0.9608 0.8374 0.8997
0.9749 0.8478 0.9606
0.9749 0.8675 1.0312
0.0000 1.0193 0.8585
0.0000 1.0193 0.8615
0.0000 1.0193 0.8721
0.0000 1.0193 0.8920
0.3650 1.0193 0.9223
0.7124 1.0193 0.9644
0.9749 1.0193 1.0203
0.9749 1.0193 1.0312
0.9749 1.0193 1.0312
0.0000 1.0193 1.0028
0.0000 1.0193 1.0064
0.0000 1.0193 1.0192
0.0000 1.0193 1.0312
0.3216 1.0193 1.0312
0.7427 1.0193 1.0312
0.9749 1.0193 1.0312
0.9749 1.0193 1.0312
0.9749 1.0193 1.0312
0.0000 0.1878 0.6944
0.0000 0.1764 0.6973
0.0000 0.1293 0.7066
0.3514 0.0000 0.7219
0.5485 0.0000 0.7427
0.7381 0.0000 0.7697
0.9321 0.0000 0.8042
0.9749 0.0000 0.8477
0.9749 0.0000 0.9026
0.0000 0.2109 0.6977
0.0000 0.2015 0.7004
0.0000 0.1646 0.7095
0.3494 0.0397 0.7246
0.5485 0.0000 0.7455
0.7391 0.0000 0.7728
0.9337 0.0000 0.8075
0.9749 0.0000 0.8515
0.9749 0.0000 0.9069
0.0000 0.2817 0.7089
0.0000 0.2758 0.7114
0.0000 0.2541 0.7200
0.3402 0.2094 0.7349
0.5474 0.1090 0.7560
0.7419 0.0000 0.7840
0.9394 0.0000 0.8199
0.9749 0.0000 0.8653
0.9749 0.0000 0.9226
0.0000 0.3869 0.7295
0.0000 0.3834 0.7318
0.0000 0.3710 0.7402
0.3161 0.3476 0.7551
0.5420 0.3100 0.7770
0.7452 0.2504 0.8063
0.9488 0.1360 0.8442
0.9749 0.0000 0.8924
0.9749 0.0000 0.9531
0.0000 0.5184 0.7624
0.0000 0.5165 0.7648
0.0000 0.5097 0.7733
0.2628 0.4972 0.7888
0.5288 0.4788 0.8119
0.7475 0.4539 0.8434
0.9617 0.4221 0.8844
0.9749 0.3838 0.9367
0.9749 0.3416 1.0028
0.0000 0.6759 0.8123
0.0000 0.6751 0.8148
0.0000 0.6722 0.8239
0.1304 0.6670 0.8406
0.5054 0.6600 0.8658
0.7490 0.6518 0.9005
0.9749 0.6438 0.9460
0.9749 0.6384 1.0043
0.9749 0.6401 1.0312
0.0000 0.8640 0.8863
0.0000 0.8641 0.8891
0.0000 0.8643 0.8992
0.0000 0.8650 0.9179
0.4735 0.8669 0.9462
0.7537 0.8712 0.9856
0.9749 0.8797 1.0312
0.9749 0.8953 1.0312
0.9749 0.9224 1.0312
0.0000 1.0193 0.9951
0.0000 1.0193 0.9983
0.0000 1.0193 1.0099
0.0000 1.0193 1.0312
0.4467 1.0193 1.0312
0.7734 1.0193 1.0312
0.9749 1.0193 1.0312
0.9749 1.0193 1.0312
0.9749 1.0193 1.0312
0.0000 1.0193 1.0312
0.0000 1.0193 1.0312
0.0000 1.0193 1.0312
0.0000 1.0193 1.0312
0.4703 1.0193 1.0312
0.8350 1.0193 1.0312
0.9749 1.0193 1.0312
0.9749 1.0193 1.0312
0.9749 1.0193 1.0312
