images/sourceTarget.cube
LUT_3D_SIZE 33
0.0000 0.0000 0.0000
0.0157 0.0000 0.0000
0.0119 0.0000 0.0000
0.0442 0.0000 0.0000
0.0813 0.0000 0.0000
0.1171 0.0000 0.0000
0.1526 0.0000 0.0070
0.1879 0.0000 0.0063
0.2232 0.0000 0.0059
0.2585 0.0000 0.0082
0.2940 0.0000 0.0120
0.3295 0.0000 0.0163
0.3653 0.0000 0.0209
0.4013 0.0000 0.0258
0.4375 0.0000 0.0308
0.4739 0.0000 0.0359
0.5107 0.0000 0.0413
0.5478 0.0000 0.0469
0.5852 0.0000 0.0527
0.6230 0.0000 0.0588
0.6613 0.0000 0.0651
0.6999 0.0000 0.0716
0.7390 0.0000 0.0785
0.7786 0.0000 0.0857
0.8186 0.0000 0.0931
0.8593 0.0000 0.1010
0.9005 0.0000 0.1092
0.9423 0.0000 0.1178
0.9749 0.0000 0.1268
0.9749 0.0000 0.1362
0.9749 0.0000 0.1461
0.9749 0.0000 0.1565
0.9749 0.0000 0.1675
0.0000 0.0178 0.0000
0.0000 0.0130 0.0000
0.0090 0.0078 0.0000
0.0468 0.0000 0.0000
0.0821 0.0000 0.0000
0.1173 0.0000 0.0000
0.1525 0.0000 0.0035
0.1877 0.0000 0.0000
0.2230 0.0000 0.0000
0.2583 0.0000 0.0051
0.2938 0.0000 0.0104
0.3293 0.0000 0.0154
0.3651 0.0000 0.0203
0.4011 0.0000 0.0253
0.4373 0.0000 0.0304
0.4738 0.0000 0.0357
0.5106 0.0000 0.0411
0.5477 0.0000 0.0467
0.5851 0.0000 0.0526
0.6230 0.0000 0.0587
0.6612 0.0000 0.0650
0.6998 0.0000 0.0716
0.7389 0.0000 0.0785
0.7785 0.0000 0.0857
0.8186 0.0000 0.0932
0.8593 0.0000 0.1010
0.9005 0.0000 0.1092
0.9423 0.0000 0.1178
0.9749 0.0000 0.1268
0.9749 0.0000 0.1363
0.9749 0.0000 0.1462
0.9749 0.0000 0.1566
0.9749 0.0000 0.1676
0.0000 0.0254 0.0000
0.0000 0.0254 0.0000
0.0000 0.0237 0.0000
0.0468 0.0120 0.0000
0.0821 0.0000 0.0000
0.1169 0.0000 0.0000
0.1518 0.0000 0.0000
0.1869 0.0000 0.0000
0.2221 0.0000 0.0000
0.2575 0.0000 0.0000
0.2930 0.0000 0.0000
0.3286 0.0000 0.0108
0.3644 0.0000 0.0175
0.4005 0.0000 0.0234
0.4367 0.0000 0.0290
0.4733 0.0000 0.0346
0.5101 0.0000 0.0403
0.5473 0.0000 0.0462
0.5848 0.0000 0.0522
0.6226 0.0000 0.0584
0.6609 0.0000 0.0648
0.6996 0.0000 0.0715
0.7387 0.0000 0.0784
0.7784 0.0000 0.0857
0.8185 0.0000 0.0932
0.8592 0.0000 0.1011
0.9004 0.0000 0.1094
0.9423 0.0000 0.1180
0.9749 0.0000 0.1271
0.9749 0.0000 0.1366
0.9749 0.0000 0.1465
0.9749 0.0000 0.1570
0.9749 0.0000 0.1679
0.0000 0.0545 0.0000
0.0000 0.0541 0.0000
0.0000 0.0523 0.0000
0.0221 0.0480 0.0000
0.0750 0.0385 0.0000
0.1130 0.0034 0.0000
0.1490 0.0000 0.0000
0.1846 0.0000 0.0000
0.2201 0.0000 0.0000
0.2557 0.0000 0.0000
0.2913 0.0000 0.0000
0.3271 0.0000 0.0000
0.3631 0.0000 0.0099
0.3993 0.0000 0.0192
0.4357 0.0000 0.0262
0.4723 0.0000 0.0326
0.5092 0.0000 0.0388
0.5465 0.0000 0.0450
0.5841 0.0000 0.0513
0.6220 0.0000 0.0577
0.6604 0.0000 0.0644
0.6992 0.0000 0.0712
0.7384 0.0000 0.0783
0.7781 0.0000 0.0856
0.8183 0.0000 0.0933
0.8590 0.0000 0.1013
0.9003 0.0000 0.1097
0.9422 0.0000 0.1184
0.9749 0.0000 0.1275
0.9749 0.0000 0.1371
0.9749 0.0000 0.1471
0.9749 0.0000 0.1576
0.9749 0.0000 0.1686
0.0000 0.0834 0.0000
0.0000 0.0829 0.0000
0.0000 0.0814 0.0000
0.0000 0.0781 0.0000
0.0518 0.0726 0.0000
0.1022 0.0634 0.0000
0.1422 0.0471 0.0000
0.1796 0.0000 0.0000
0.2162 0.0000 0.0000
0.2524 0.0000 0.0000
0.2885 0.0000 0.0000
0.3247 0.0000 0.0000
0.3609 0.0000 0.0000
0.3973 0.0000 0.0081
0.4339 0.0000 0.0208
0.4708 0.0000 0.0290
0.5079 0.0000 0.0363
0.5453 0.0000 0.0432
0.5830 0.0000 0.0500
0.6211 0.0000 0.0568
0.6596 0.0000 0.0637
0.6985 0.0000 0.0708
0.7378 0.0000 0.0781
0.7776 0.0000 0.0856
0.8179 0.0000 0.0935
0.8588 0.0000 0.1016
0.9002 0.0000 0.1101
0.9422 0.0000 0.1189
0.9749 0.0000 0.1282
0.9749 0.0000 0.1378
0.9749 0.0000 0.1480
0.9749 0.0000 0.1585
0.9749 0.0000 0.1697
0.0000 0.1120 0.0000
0.0000 0.1116 0.0000
0.0000 0.1103 0.0000
0.0000 0.1076 0.0000
0.0000 0.1034 0.0000
0.0794 0.0971 0.0000
0.1292 0.0880 0.0000
0.1707 0.0745 0.0000
0.2095 0.0520 0.0000
0.2470 0.0000 0.0000
0.2841 0.0000 0.0000
0.3209 0.0000 0.0000
0.3577 0.0000 0.0000
0.3945 0.0000 0.0000
0.4315 0.0000 0.0068
0.4686 0.0000 0.0230
0.5060 0.0000 0.0324
0.5436 0.0000 0.0405
0.5816 0.0000 0.0480
0.6198 0.0000 0.0554
0.6585 0.0000 0.0628
0.6976 0.0000 0.0702
0.7371 0.0000 0.0778
0.7770 0.0000 0.0856
0.8175 0.0000 0.0937
0.8585 0.0000 0.1020
0.9000 0.0000 0.1107
0.9421 0.0000 0.1197
0.9749 0.0000 0.1291
0.9749 0.0000 0.1389
0.9749 0.0000 0.1491
0.9749 0.0000 0.1598
0.9749 0.0000 0.1711
0.0000 0.1406 0.0000
0.0000 0.1403 0.0000
0.0000 0.1391 0.0000
0.0000 0.1369 0.0000
0.0000 0.1334 0.0000
0.0000 0.1285 0.0000
0.1068 0.1218 0.0000
0.1565 0.1128 0.0000
0.1991 0.1005 0.0000
0.2390 0.0831 0.0000
0.2776 0.0545 0.0000
0.3155 0.0000 0.0000
0.3531 0.0000 0.0000
0.3906 0.0000 0.0000
0.4280 0.0000 0.0000
0.4656 0.0000 0.0089
0.5034 0.0000 0.0263
0.5413 0.0000 0.0366
0.5796 0.0000 0.0454
0.6181 0.0000 0.0536
0.6570 0.0000 0.0616
0.6963 0.0000 0.0695
0.7360 0.0000 0.0775
0.7762 0.0000 0.0856
0.8169 0.0000 0.0940
0.8580 0.0000 0.1026
0.8997 0.0000 0.1114
0.9420 0.0000 0.1207
0.9749 0.0000 0.1302
0.9749 0.0000 0.1402
0.9749 0.0000 0.1506
0.9749 0.0000 0.1615
0.9749 0.0000 0.1729
0.0000 0.1693 0.0000
0.0000 0.1690 0.0000
0.0000 0.1680 0.0000
0.0000 0.1661 0.0000
0.0000 0.1631 0.0000
0.0000 0.1591 0.0000
0.0620 0.1537 0.0000
0.1343 0.1468 0.0000
0.1840 0.1379 0.0000
0.2276 0.1264 0.0000
0.2686 0.1114 0.0000
0.3081 0.0906 0.0000
0.3469 0.0560 0.0000
0.3853 0.0000 0.0000
0.4235 0.0000 0.0000
0.4617 0.0000 0.0000
0.5000 0.0000 0.0144
0.5384 0.0000 0.0309
0.5770 0.0000 0.0418
0.6159 0.0000 0.0512
0.6552 0.0000 0.0601
0.6948 0.0000 0.0686
0.7347 0.0000 0.0771
0.7752 0.0000 0.0857
0.8160 0.0000 0.0944
0.8574 0.0000 0.1033
0.8994 0.0000 0.1124
0.9419 0.0000 0.1219
0.9749 0.0000 0.1317
0.9749 0.0000 0.1419
0.9749 0.0000 0.1526
0.9749 0.0000 0.1636
0.9749 0.0000 0.1752
0.0000 0.1982 0.0000
0.0000 0.1979 0.0000
0.0000 0.1970 0.0000
0.0000 0.1954 0.0000
0.0000 0.1929 0.0000
0.0000 0.1894 0.0000
0.0000 0.1849 0.0000
0.0975 0.1792 0.0000
0.1622 0.1721 0.0000
0.2120 0.1634 0.0000
0.2565 0.1526 0.0000
0.2984 0.1391 0.0000
0.3388 0.1217 0.0000
0.3785 0.0979 0.0000
0.4177 0.0582 0.0000
0.4567 0.0000 0.0000
0.4957 0.0000 0.0000
0.5347 0.0000 0.0218
0.5738 0.0000 0.0370
0.6132 0.0000 0.0483
0.6528 0.0000 0.0583
0.6928 0.0000 0.0676
0.7331 0.0000 0.0767
0.7739 0.0000 0.0858
0.8150 0.0000 0.0949
0.8567 0.0000 0.1042
0.8989 0.0000 0.1137
0.9417 0.0000 0.1235
0.9749 0.0000 0.1336
0.9749 0.0000 0.1440
0.9749 0.0000 0.1549
0.9749 0.0000 0.1662
0.9749 0.0000 0.1780
0.0000 0.2274 0.0000
0.0000 0.2271 0.0000
0.0000 0.2264 0.0000
0.0000 0.2249 0.0000
0.0000 0.2227 0.0000
0.0000 0.2197 0.0000
0.0000 0.2159 0.0000
0.0000 0.2110 0.0000
0.1294 0.2051 0.0000
0.1906 0.1980 0.0000
0.2405 0.1895 0.0000
0.2858 0.1792 0.0000
0.3286 0.1668 0.0000
0.3699 0.1516 0.0000
0.4105 0.1322 0.0000
0.4505 0.1061 0.0000
0.4904 0.0631 0.0000
0.5301 0.0000 0.0000
0.5699 0.0000 0.0305
0.6098 0.0000 0.0448
0.6500 0.0000 0.0562
0.6904 0.0000 0.0666
0.7311 0.0000 0.0764
0.7722 0.0000 0.0861
0.8138 0.0000 0.0957
0.8558 0.0000 0.1054
0.8983 0.0000 0.1153
0.9414 0.0000 0.1254
0.9749 0.0000 0.1358
0.9749 0.0000 0.1466
0.9749 0.0000 0.1577
0.9749 0.0000 0.1693
0.9749 0.0000 0.1813
0.0000 0.2569 0.0000
0.0000 0.2567 0.0000
0.0000 0.2560 0.0000
0.0000 0.2547 0.0000
0.0000 0.2528 0.0000
0.0000 0.2502 0.0000
0.0000 0.2468 0.0000
0.0000 0.2427 0.0000
0.0669 0.2376 0.0000
0.1605 0.2317 0.0000
0.2195 0.2246 0.0000
0.2697 0.2163 0.0000
0.3156 0.2065 0.0000
0.3593 0.1949 0.0000
0.4015 0.1812 0.0000
0.4430 0.1646 0.0000
0.4839 0.1438 0.0000
0.5246 0.1161 0.0000
0.5651 0.0722 0.0208
0.6058 0.0000 0.0406
0.6465 0.0000 0.0540
0.6875 0.0000 0.0656
0.7287 0.0000 0.0763
0.7703 0.0000 0.0866
0.8123 0.0000 0.0968
0.8547 0.0000 0.1070
0.8976 0.0000 0.1173
0.9410 0.0000 0.1278
0.9749 0.0000 0.1385
0.9749 0.0000 0.1496
0.9749 0.0000 0.1610
0.9749 0.0000 0.1729
0.9749 0.0000 0.1852
0.0000 0.2869 0.0000
0.0000 0.2867 0.0000
0.0000 0.2861 0.0000
0.0000 0.2850 0.0000
0.0000 0.2833 0.0000
0.0000 0.2810 0.0000
0.0000 0.2780 0.0000
0.0000 0.2744 0.0000
0.0000 0.2700 0.0000
0.1130 0.2649 0.0000
0.1914 0.2589 0.0000
0.2492 0.2519 0.0000
0.2996 0.2438 0.0000
0.3462 0.2345 0.0000
0.3907 0.2237 0.0000
0.4338 0.2112 0.0000
0.4761 0.1964 0.0000
0.5179 0.1789 0.0000
0.5595 0.1572 0.0000
0.6009 0.1290 0.0359
0.6424 0.0866 0.0519
0.6840 0.0000 0.0649
0.7259 0.0000 0.0765
0.7680 0.0000 0.0876
0.8105 0.0000 0.0983
0.8533 0.0000 0.1090
0.8967 0.0000 0.1198
0.9405 0.0000 0.1307
0.9749 0.0000 0.1418
0.9749 0.0000 0.1532
0.9749 0.0000 0.1650
0.9749 0.0000 0.1772
0.9749 0.0000 0.1898
0.0000 0.3174 0.0000
0.0000 0.3173 0.0000
0.0000 0.3167 0.0000
0.0000 0.3157 0.0000
0.0000 0.3142 0.0000
0.0000 0.3122 0.0000
0.0000 0.3096 0.0000
0.0000 0.3064 0.0000
0.0000 0.3025 0.0000
0.0000 0.2980 0.0000
0.1510 0.2928 0.0000
0.2226 0.2868 0.0000
0.2795 0.2800 0.0000
0.3303 0.2722 0.0000
0.3776 0.2633 0.0000
0.4228 0.2533 0.0000
0.4668 0.2417 0.0000
0.5100 0.2285 0.0000
0.5528 0.2132 0.0000
0.5952 0.1951 0.0308
0.6376 0.1732 0.0502
0.6799 0.1454 0.0646
0.7225 0.1062 0.0773
0.7652 0.0000 0.0891
0.8083 0.0000 0.1004
0.8517 0.0000 0.1116
0.8956 0.0000 0.1229
0.9399 0.0000 0.1342
0.9749 0.0000 0.1457
0.9749 0.0000 0.1575
0.9749 0.0000 0.1696
0.9749 0.0000 0.1821
0.9749 0.0000 0.1951
0.0000 0.3485 0.0000
0.0000 0.3484 0.0000
0.0000 0.3479 0.0000
0.0000 0.3470 0.0000
0.0000 0.3456 0.0000
0.0000 0.3438 0.0000
0.0000 0.3415 0.0000
0.0000 0.3387 0.0000
0.0000 0.3353 0.0000
0.0000 0.3314 0.0000
0.0760 0.3268 0.0000
0.1867 0.3216 0.0000
0.2544 0.3157 0.0000
0.3108 0.3091 0.0000
0.3619 0.3016 0.0000
0.4098 0.2932 0.0000
0.4559 0.2838 0.0000
0.5008 0.2732 0.0000
0.5449 0.2612 0.0000
0.5885 0.2476 0.0260
0.6319 0.2320 0.0493
0.6752 0.2139 0.0652
0.7186 0.1924 0.0788
0.7620 0.1659 0.0913
0.8058 0.1309 0.1033
0.8498 0.0733 0.1150
0.8943 0.0000 0.1267
0.9392 0.0000 0.1384
0.9749 0.0000 0.1503
0.9749 0.0000 0.1625
0.9749 0.0000 0.1750
0.9749 0.0000 0.1879
0.9749 0.0000 0.2012
0.0000 0.3802 0.0000
0.0000 0.3801 0.0000
0.0000 0.3797 0.0000
0.0000 0.3789 0.0000
0.0000 0.3777 0.0000
0.0000 0.3761 0.0000
0.0000 0.3740 0.0000
0.0000 0.3715 0.0000
0.0000 0.3685 0.0000
0.0000 0.3651 0.0000
0.0000 0.3611 0.0000
0.1321 0.3565 0.0000
0.2217 0.3514 0.0000
0.2869 0.3457 0.0000
0.3430 0.3393 0.0000
0.3945 0.3321 0.0000
0.4431 0.3242 0.0000
0.4900 0.3154 0.0000
0.5358 0.3056 0.0000
0.5808 0.2947 0.0231
0.6254 0.2826 0.0498
0.6697 0.2689 0.0669
0.7140 0.2535 0.0813
0.7584 0.2359 0.0944
0.8029 0.2154 0.1070
0.8476 0.1910 0.1192
0.8927 0.1604 0.1313
0.9383 0.1183 0.1435
0.9749 0.0056 0.1559
0.9749 0.0000 0.1684
0.9749 0.0000 0.1813
0.9749 0.0000 0.1946
0.9749 0.0000 0.2083
0.0000 0.4126 0.0000
0.0000 0.4125 0.0000
0.0000 0.4122 0.0000
0.0000 0.4114 0.0000
0.0000 0.4104 0.0000
0.0000 0.4090 0.0000
0.0000 0.4071 0.0000
0.0000 0.4049 0.0000
0.0000 0.4023 0.0000
0.0000 0.3992 0.0000
0.0000 0.3957 0.0000
0.0000 0.3917 0.0000
0.1765 0.3873 0.0000
0.2568 0.3823 0.0000
0.3202 0.3767 0.0000
0.3763 0.3706 0.0000
0.4282 0.3638 0.0000
0.4776 0.3564 0.0000
0.5253 0.3482 0.0000
0.5720 0.3393 0.0244
0.6179 0.3294 0.0522
0.6635 0.3185 0.0701
0.7088 0.3065 0.0851
0.7541 0.2932 0.0988
0.7995 0.2784 0.1118
0.8451 0.2617 0.1245
0.8910 0.2428 0.1370
0.9372 0.2209 0.1496
0.9749 0.1949 0.1624
0.9749 0.1624 0.1753
0.9749 0.1174 0.1886
0.9749 0.0000 0.2022
0.9749 0.0000 0.2163
0.0000 0.4459 0.0000
0.0000 0.4458 0.0000
0.0000 0.4454 0.0000
0.0000 0.4448 0.0000
0.0000 0.4439 0.0000
0.0000 0.4426 0.0000
0.0000 0.4410 0.0000
0.0000 0.4390 0.0000
0.0000 0.4367 0.0000
0.0000 0.4340 0.0000
0.0000 0.4309 0.0000
0.0000 0.4274 0.0000
0.0983 0.4235 0.0000
0.2174 0.4191 0.0000
0.2924 0.4143 0.0000
0.3547 0.4090 0.0000
0.4107 0.4032 0.0000
0.4632 0.3969 0.0000
0.5133 0.3900 0.0000
0.5618 0.3825 0.0306
0.6094 0.3743 0.0570
0.6564 0.3654 0.0750
0.7029 0.3557 0.0903
0.7493 0.3452 0.1044
0.7957 0.3336 0.1178
0.8422 0.3211 0.1309
0.8889 0.3072 0.1438
0.9359 0.2920 0.1568
0.9749 0.2750 0.1699
0.9749 0.2560 0.1833
0.9749 0.2344 0.1970
0.9749 0.2093 0.2110
0.9749 0.1791 0.2255
0.0000 0.4799 0.0000
0.0000 0.4798 0.0000
0.0000 0.4795 0.0000
0.0000 0.4790 0.0000
0.0000 0.4781 0.0000
0.0000 0.4770 0.0000
0.0000 0.4756 0.0000
0.0000 0.4739 0.0000
0.0000 0.4718 0.0000
0.0000 0.4694 0.0000
0.0000 0.4667 0.0000
0.0000 0.4637 0.0000
0.0000 0.4602 0.0000
0.1604 0.4564 0.0000
0.2573 0.4523 0.0000
0.3288 0.4477 0.0000
0.3903 0.4427 0.0000
0.4465 0.4373 0.0000
0.4995 0.4314 0.0000
0.5503 0.4251 0.0404
0.5998 0.4182 0.0641
0.6483 0.4109 0.0818
0.6963 0.4029 0.0973
0.7439 0.3943 0.1116
0.7914 0.3851 0.1252
0.8389 0.3752 0.1386
0.8866 0.3645 0.1519
0.9345 0.3530 0.1653
0.9749 0.3406 0.1788
0.9749 0.3272 0.1925
0.9749 0.3126 0.2065
0.9749 0.2968 0.2210
0.9749 0.2795 0.2359
0.0000 0.5149 0.0000
0.0000 0.5148 0.0000
0.0000 0.5146 0.0000
0.0000 0.5141 0.0000
0.0000 0.5133 0.0000
0.0000 0.5124 0.0000
0.0000 0.5111 0.0000
0.0000 0.5096 0.0000
0.0000 0.5078 0.0000
0.0000 0.5057 0.0000
0.0000 0.5033 0.0000
0.0000 0.5007 0.0000
0.0000 0.4977 0.0000
0.0000 0.4944 0.0000
0.2106 0.4908 0.0000
0.2971 0.4868 0.0000
0.3662 0.4826 0.0000
0.4273 0.4779 0.0000
0.4837 0.4730 0.0027
0.5373 0.4676 0.0523
0.5889 0.4618 0.0735
0.6393 0.4557 0.0906
0.6889 0.4491 0.1059
0.7379 0.4421 0.1203
0.7866 0.4347 0.1342
0.8353 0.4267 0.1478
0.8840 0.4183 0.1614
0.9328 0.4093 0.1751
0.9749 0.3998 0.1889
0.9749 0.3898 0.2030
0.9749 0.3792 0.2174
0.9749 0.3679 0.2323
0.9749 0.3561 0.2476
0.0000 0.5509 0.0000
0.0000 0.5508 0.0000
0.0000 0.5506 0.0000
0.0000 0.5502 0.0000
0.0000 0.5495 0.0000
0.0000 0.5487 0.0000
0.0000 0.5476 0.0000
0.0000 0.5463 0.0000
0.0000 0.5447 0.0000
0.0000 0.5429 0.0000
0.0000 0.5408 0.0000
0.0000 0.5385 0.0000
0.0000 0.5359 0.0000
0.0000 0.5331 0.0000
0.1378 0.5300 0.0000
0.2570 0.5266 0.0000
0.3374 0.5230 0.0000
0.4049 0.5191 0.0000
0.4657 0.5148 0.0399
0.5225 0.5103 0.0660
0.5767 0.5055 0.0850
0.6292 0.5004 0.1014
0.6806 0.4950 0.1164
0.7312 0.4893 0.1308
0.7813 0.4833 0.1448
0.8312 0.4769 0.1586
0.8811 0.4702 0.1724
0.9310 0.4632 0.1864
0.9749 0.4559 0.2005
0.9749 0.4482 0.2150
0.9749 0.4403 0.2298
0.9749 0.4321 0.2450
0.9749 0.4236 0.2607
0.0000 0.5880 0.0000
0.0000 0.5879 0.0000
0.0000 0.5877 0.0000
0.0000 0.5873 0.0000
0.0000 0.5868 0.0000
0.0000 0.5861 0.0000
0.0000 0.5851 0.0000
0.0000 0.5840 0.0000
0.0000 0.5826 0.0000
0.0000 0.5811 0.0000
0.0000 0.5793 0.0000
0.0000 0.5773 0.0000
0.0000 0.5751 0.0000
0.0000 0.5727 0.0000
0.0000 0.5701 0.0000
0.2024 0.5672 0.0000
0.3023 0.5642 0.0000
0.3787 0.5609 0.0279
0.4451 0.5573 0.0605
0.5058 0.5536 0.0812
0.5630 0.5496 0.0984
0.6180 0.5454 0.1140
0.6714 0.5410 0.1288
0.7238 0.5364 0.1430
0.7755 0.5316 0.1571
0.8268 0.5265 0.1710
0.8779 0.5213 0.1851
0.9290 0.5159 0.1993
0.9749 0.5103 0.2137
0.9749 0.5045 0.2285
0.9749 0.4986 0.2437
0.9749 0.4927 0.2593
0.9749 0.4867 0.2754
0.0000 0.6262 0.0000
0.0000 0.6262 0.0000
0.0000 0.6260 0.0000
0.0000 0.6257 0.0000
0.0000 0.6252 0.0000
0.0000 0.6246 0.0000
0.0000 0.6238 0.0000
0.0000 0.6228 0.0000
0.0000 0.6217 0.0000
0.0000 0.6204 0.0000
0.0000 0.6189 0.0000
0.0000 0.6172 0.0000
0.0000 0.6154 0.0000
0.0000 0.6134 0.0000
0.0000 0.6112 0.0000
0.1078 0.6088 0.0000
0.2576 0.6062 0.0223
0.3476 0.6035 0.0588
0.4213 0.6006 0.0801
0.4869 0.5976 0.0977
0.5477 0.5944 0.1136
0.6055 0.5910 0.1285
0.6612 0.5875 0.1429
0.7156 0.5839 0.1571
0.7691 0.5801 0.1711
0.8219 0.5762 0.1852
0.8745 0.5722 0.1994
0.9269 0.5681 0.2139
0.9749 0.5640 0.2286
0.9749 0.5598 0.2438
0.9749 0.5556 0.2593
0.9749 0.5515 0.2753
0.9749 0.5474 0.2919
0.0000 0.6657 0.0000
0.0000 0.6657 0.0000
0.0000 0.6656 0.0000
0.0000 0.6653 0.0000
0.0000 0.6649 0.0000
0.0000 0.6644 0.0000
0.0000 0.6637 0.0000
0.0000 0.6629 0.0000
0.0000 0.6620 0.0000
0.0000 0.6609 0.0000
0.0000 0.6597 0.0000
0.0000 0.6583 0.0000
0.0000 0.6568 0.0000
0.0000 0.6552 0.0000
0.0000 0.6534 0.0000
0.0000 0.6515 0.0310
0.1954 0.6494 0.0623
0.3097 0.6472 0.0828
0.3936 0.6450 0.1001
0.4654 0.6425 0.1158
0.5306 0.6400 0.1306
0.5917 0.6374 0.1449
0.6501 0.6347 0.1590
0.7067 0.6320 0.1730
0.7621 0.6292 0.1871
0.8167 0.6263 0.2012
0.8708 0.6234 0.2156
0.9247 0.6205 0.2303
0.9749 0.6176 0.2454
0.9749 0.6148 0.2608
0.9749 0.6121 0.2767
0.9749 0.6096 0.2931
0.9749 0.6072 0.3102
0.0000 0.7066 0.0000
0.0000 0.7066 0.0000
0.0000 0.7065 0.0000
0.0000 0.7063 0.0000
0.0000 0.7060 0.0000
0.0000 0.7056 0.0000
0.0000 0.7050 0.0000
0.0000 0.7044 0.0000
0.0000 0.7037 0.0000
0.0000 0.7028 0.0000
0.0000 0.7018 0.0000
0.0000 0.7007 0.0000
0.0000 0.6995 0.0000
0.0000 0.6983 0.0000
0.0000 0.6969 0.0478
0.0000 0.6954 0.0715
0.0687 0.6938 0.0898
0.2616 0.6922 0.1060
0.3611 0.6904 0.1210
0.4410 0.6886 0.1354
0.5114 0.6868 0.1494
0.5764 0.6849 0.1632
0.6379 0.6830 0.1770
0.6971 0.6810 0.1909
0.7546 0.6791 0.2050
0.8111 0.6772 0.2192
0.8670 0.6753 0.2338
0.9224 0.6735 0.2487
0.9749 0.6718 0.2640
0.9749 0.6702 0.2798
0.9749 0.6688 0.2961
0.9749 0.6676 0.3129
0.9749 0.6667 0.3304
0.0000 0.7491 0.0000
0.0000 0.7490 0.0000
0.0000 0.7489 0.0000
0.0000 0.7488 0.0000
0.0000 0.7485 0.0000
0.0000 0.7482 0.0000
0.0000 0.7478 0.0000
0.0000 0.7473 0.0000
0.0000 0.7468 0.0000
0.0000 0.7461 0.0000
0.0000 0.7454 0.0000
0.0000 0.7446 0.0000
0.0000 0.7437 0.0446
0.0000 0.7428 0.0676
0.0000 0.7418 0.0853
0.0000 0.7407 0.1010
0.0000 0.7396 0.1156
0.1939 0.7384 0.1295
0.3218 0.7372 0.1431
0.4129 0.7360 0.1566
0.4900 0.7348 0.1700
0.5596 0.7336 0.1834
0.6246 0.7324 0.1970
0.6866 0.7312 0.2108
0.7466 0.7301 0.2249
0.8052 0.7291 0.2392
0.8630 0.7282 0.2540
0.9201 0.7274 0.2691
0.9749 0.7268 0.2847
0.9749 0.7263 0.3008
0.9749 0.7262 0.3175
0.9749 0.7263 0.3348
0.9749 0.7267 0.3528
0.0000 0.7931 0.0000
0.0000 0.7931 0.0000
0.0000 0.7930 0.0000
0.0000 0.7929 0.0000
0.0000 0.7927 0.0000
0.0000 0.7925 0.0000
0.0000 0.7922 0.0000
0.0000 0.7919 0.0000
0.0000 0.7915 0.0000
0.0000 0.7911 0.0361
0.0000 0.7906 0.0580
0.0000 0.7901 0.0746
0.0000 0.7895 0.0892
0.0000 0.7889 0.1029
0.0000 0.7882 0.1160
0.0000 0.7876 0.1288
0.0000 0.7869 0.1414
0.0209 0.7862 0.1541
0.2724 0.7856 0.1667
0.3802 0.7849 0.1795
0.4659 0.7843 0.1924
0.5411 0.7838 0.2056
0.6102 0.7833 0.2190
0.6755 0.7829 0.2328
0.7382 0.7825 0.2469
0.7991 0.7824 0.2614
0.8589 0.7824 0.2763
0.9179 0.7825 0.2917
0.9749 0.7829 0.3076
0.9749 0.7836 0.3241
0.9749 0.7846 0.3412
0.9749 0.7859 0.3590
0.9749 0.7876 0.3775
0.0000 0.8389 0.0099
0.0000 0.8389 0.0136
0.0000 0.8388 0.0219
0.0000 0.8388 0.0312
0.0000 0.8387 0.0410
0.0000 0.8385 0.0509
0.0000 0.8384 0.0609
0.0000 0.8382 0.0710
0.0000 0.8380 0.0813
0.0000 0.8378 0.0916
0.0000 0.8375 0.1021
0.0000 0.8373 0.1127
0.0000 0.8370 0.1234
0.0000 0.8367 0.1343
0.0000 0.8364 0.1454
0.0000 0.8362 0.1567
0.0000 0.8359 0.1682
0.0000 0.8358 0.1800
0.2041 0.8356 0.1920
0.3415 0.8355 0.2043
0.4387 0.8355 0.2169
0.5207 0.8356 0.2299
0.5946 0.8358 0.2432
0.6636 0.8361 0.2570
0.7293 0.8366 0.2712
0.7928 0.8372 0.2858
0.8548 0.8381 0.3009
0.9159 0.8392 0.3166
0.9749 0.8406 0.3329
0.9749 0.8424 0.3498
0.9749 0.8444 0.3674
0.9749 0.8470 0.3856
0.9749 0.8499 0.4047
0.0000 0.8866 0.0926
0.0000 0.8866 0.0929
0.0000 0.8866 0.0942
0.0000 0.8865 0.0965
0.0000 0.8865 0.0998
0.0000 0.8865 0.1042
0.0000 0.8865 0.1094
0.0000 0.8864 0.1155
0.0000 0.8864 0.1224
